**kern	**kern	**kern	**kern
*staff3	*staff4	*staff1	*staff2
*tb96	*tb96	*tb96	*tb96
=0-	=0-	=0-	=0-
*clefF4	*clefF4	*clefG2	*clefG2
*k[f#c#]	*k[f#c#]	*k[f#c#]	*k[f#c#]
*M2/4	*M2/4	*M2/4	*M2/4
2r	8D	8a 8ff#	2r
.	8r	8r	.
.	8AA	8g 8ee	.
.	8r	8r	.
=1	=1	=1	=1
2r	4BB	4f# 4dd	2r
.	4r	8.r	.
.	.	16cc#	.
=2	=2	=2	=2
2r	8GG	8g 8b	2r
.	8r	8r	.
.	8BB	8g 8b	.
.	8r	8r	.
=3	=3	=3	=3
2r	8D	8f# 8a	2r
.	8r	8r	.
.	4r	4r	.
=4	=4	=4	=4
2r	8D 8A	8d 8f#	2r
.	8r	8r	.
.	(4D [4A	(4d 4f#	.
=5	=5	=5	=5
2r	8C#) 8A]	8e) 8g	2r
.	8r	8r	.
.	(4C# [4A	(4e 4g	.
=6	=6	=6	=6
2r	8D) 8A]	8d) 8f#	2r
.	8r	8r	.
.	4D 4A	4d 4f#	.
=7	=7	=7	=7
2r	4AA 4A	4c# 4e	2r
.	4r	4r	.
=8:|!|:	=8:|!|:	=8:|!|:	=8:|!|:
2r	2AA 2G	4e	2c#
.	.	8a	.
.	.	8r	.
=9	=9	=9	=9
2r	2AA 2F#	4f#	2d
.	.	8dd	.
.	.	8r	.
=10	=10	=10	=10
2r	2AA 2C# 2G	8ee	2r
.	.	8r	.
.	.	8a	.
.	.	8r	.
=11	=11	=11	=11
2r	2AA 2D 2F#	8dd	2r
.	.	8r	.
.	.	8d	.
.	.	8r	.
=12	=12	=12	=12
2r	2AA 2G	4e	2c#
.	.	8a	.
.	.	8r	.
=13	=13	=13	=13
2r	2AA 2F#	4f#	2d
.	.	8dd	.
.	.	8r	.
=14	=14	=14	=14
4CC# 4FF#	2AA	4a	2e
4BBB 4EE	.	16g#LL	.
.	.	16a	.
.	.	16b	.
.	.	16aJJ	.
=15	=15	=15	=15
4AAA	4D	4d	2r
4r	4r	4r	.
=16:|!	=16:|!	=16:|!	=16:|!
4D 4F#	[2D	(4ff#	4a
4E 4G	.	8cc#L	4g
.	.	8eeJ	.
=17	=17	=17	=17
4F# 4A	2D_	4dd	4a
4F# 4A#	.	8a#L	4d
.	.	8cc#J	.
=18	=18	=18	=18
4G 4B	2D_	4b	4d
4E# 4G#	.	8ddL	[4d 4g#
.	.	[8bJ	.
=19	=19	=19	=19
8F# 8A	8D]	8bL]	8d]
8r	8r	8aJ	8r
4r	4r	8f#L	4r
.	.	8dJ)	.
=20	=20	=20	=20
4.F# 4.A	8r	2r	8r
.	(8C#	.	(8f#
.	8DL	.	8dL
8r	8BBJ)	.	8GJ)
=21	=21	=21	=21
4.E	(8AAL	(4g	4A 4c#
.	8BBJ	.	.
.	8AAL	8eL	4e
8C#	8GGJ	[8aJ	.
=22	=22	=22	=22
8D	8FF#L	8aL]	8dL
8r	8EEJ	8cc#J	8gJ
4r	8DDL	8ddL)	8f#L
.	8FF#J	[8f#J	[8dJ
=23	=23	=23	=23
4r	4.AA)	8f#L]	4d]
.	.	8gJ	.
8r	.	8e	8c#
8A	8r	8r	8r
=24:|!|:	=24:|!|:	=24:|!|:	=24:|!|:
4.G	[2AA	8eL	4.c#
.	.	8b^J	.
.	.	[4a	.
8C#	.	.	8g
=25	=25	=25	=25
4.D	2AA_	8aL]	4.f#
.	.	8ee^J	.
.	.	[4dd	.
8F#	.	.	8a
=26	=26	=26	=26
8E	8AA]	(8ddL]	8g
8r	8r	8cc#J)	8r
[4G	[4AA	(8bL	[4c# 4e
.	.	8aJ)	.
=27	=27	=27	=27
(16GLL]	2AA_	8a	(16c#LL]
16F#	.	.	16d
16E	.	8r	16e
16DJJ	.	.	16f#JJ
16C#LL	.	4r	16gLL
16D	.	.	16f#
16E	.	.	16e
16F#JJ)	.	.	16dJJ)
=28	=28	=28	=28
4.G	2AA_	8eL	4.c#
.	.	8b^J	.
.	.	[4a	.
8G	.	.	8c#
=29	=29	=29	=29
4.F#	2AA_	8aL]	4.d
.	.	8ee^J	.
.	.	[4dd	.
8D	.	.	8f#
=30	=30	=30	=30
8E	8AA]	8ddL]	8g
8r	8r	8cc#J	8r
8G	8AA	8bL	8c# 8e
8r	8r	8aJ	8r
=31	=31	=31	=31
8F#	8D	8a	8d
8r	8r	8r	8r
4r	4r	4r	4r
=32:|!	=32:|!	=32:|!	=32:|!
2r	8r	8ff#'L	2r
.	8D 8F# 8A 8d	(32ff#LK	.
.	.	16aa'JJ)	.
.	.	32r	.
.	8r	8ee'L	.
.	8G 8A 8c#	(32eeLK	.
.	.	16aa'JJ)	.
.	.	32r	.
=33	=33	=33	=33
2r	8r	8dd'L	2r
.	8F# 8A 8d	(32ddLK	.
.	.	16ddd'JJ)	.
.	.	32r	.
.	8r	8cc'L	.
.	8F# 8A 8c 8d	(32ccLK	.
.	.	16ccc'JJ)	.
.	.	32r	.
=34	=34	=34	=34
2r	8r	8b'L	2r
.	8G 8B 8d	(32bLK	.
.	.	16bb'JJ)	.
.	.	32r	.
.	8r	8cc#'L	.
.	8G 8A 8c# 8e	(32cc#LK	.
.	.	16ccc#'JJ)	.
.	.	32r	.
=35	=35	=35	=35
2r	8r	8dd'L	2r
.	8F# 8A 8d 8f#	(32ddLK	.
.	.	16ddd'JJ)	.
.	.	32r	.
.	4r	8a'L	.
.	.	(32aLK	.
.	.	16aa'JJ)	.
.	.	32r	.
=36	=36	=36	=36
2r	8r	8f#'L	2r
.	8D# 8F# 8A 8B	(32f#LK	.
.	.	16ff#'JJ)	.
.	.	32r	.
.	8r	8ff#'L	.
.	8BB 8D# 8F# 8A	(32ff#LK	.
.	.	16bb'JJ)	.
.	.	32r	.
=37	=37	=37	=37
2r	8r	8e'L	2r
.	8E 8G	(32eLK	.
.	.	16ee'JJ)	.
.	.	32r	.
.	8r	8ee'L	.
.	8AA 8C# 8E 8G	(32eeLK	.
.	.	16aa'JJ)	.
.	.	32r	.
=38	=38	=38	=38
2r	8r	8d'L	2r
.	8D 8F#	(32dLK	.
.	.	16dd'JJ)	.
.	.	32r	.
.	8r	8dd'L	.
.	8BB 8D 8E 8G#	(32ddLK	.
.	.	16ddd'JJ)	.
.	.	32r	.
=39	=39	=39	=39
2r	8r	8a'L	2r
.	8AA 8C# 8E 8A	(32aLK	.
.	.	16aa'JJ)	.
.	.	32r	.
.	8AAA	4r	.
.	8r	.	.
=40:|!|:	=40:|!|:	=40:|!|:	=40:|!|:
2r	8r	8A'L	2r
.	8AA 8C# 8E	(32ALK	.
.	.	16e'JJ)	.
.	.	32r	.
.	8r	8e'L	.
.	8GG 8BB 8C# 8E	(32eLK	.
.	.	16a'JJ)	.
.	.	32r	.
=41	=41	=41	=41
2r	8r	8a'L	2r
.	8FF# 8AA 8D	(32aLK	.
.	.	16dd'JJ)	.
.	.	32r	.
.	8r	8dd'L	.
.	8DD 8FF# 8AA	(32ddLK	.
.	.	16ff#'JJ)	.
.	.	32r	.
=42	=42	=42	=42
2r	8r	8ff#'L	2r
.	8CC# 8EE 8AA	(32ff#LK	.
.	.	16gg'JJ)	.
.	.	32r	.
.	8r	8gg'L	.
.	8GG 8AA	(32ggLK	.
.	.	16ccc#'JJ)	.
.	.	32r	.
=43	=43	=43	=43
2r	8r	8ccc#'L	2r
.	8FF# 8AA	(32ccc#LK	.
.	.	16ddd'JJ)	.
.	.	32r	.
.	4r	8ddd'L	.
.	.	(32dddLK	.
.	.	16aa'JJ)	.
.	.	32r	.
=44	=44	=44	=44
2r	8r	8aa'L	2r
.	8CC# 8GG 8AA	(32aaLK	.
.	.	16ee'JJ)	.
.	.	32r	.
.	8r	8ee'L	.
.	8GG 8AA 8C#	(32eeLK	.
.	.	16a'JJ)	.
.	.	32r	.
=45	=45	=45	=45
2r	8r	8a'L	2r
.	8FF# 8AA 8D	(32aLK	.
.	.	16dd'JJ)	.
.	.	32r	.
.	8r	8dd'L	.
.	8D 8F#	(32ddLK	.
.	.	16d'JJ)	.
.	.	32r	.
=46	=46	=46	=46
2r	8r	8d'L	2r
.	8D 8E	(32dLK	.
.	.	16a'JJ)	.
.	.	32r	.
.	8r	8a'L	.
.	8AA 8C# 8E	(32aLK	.
.	.	16A'JJ)	.
.	.	32r	.
=47	=47	=47	=47
2r	8r	8A'L	2r
.	8D	(32ALK	.
.	.	16d'JJ)	.
.	.	32r	.
.	8DD	4r	.
.	8r	.	.
=48:|!	=48:|!	=48:|!	=48:|!
2r	16DDLL	8a'L 8ff#'	2r
.	16EE	.	.
.	16FF#	(8aJ 8ff#	.
.	16GGJJ	.	.
.	16AALL	8g'L) 8ee'	.
.	16BB	.	.
.	16C	(8gJ 8ee	.
.	16C#JJ	.	.
=49	=49	=49	=49
2r	16DLL	8f#'L) 8dd'	2r
.	16E	.	.
.	16F#	8f#'J 8dd'	.
.	16GJJ	.	.
.	16ALL	8r	.
.	16B	.	.
.	16c	16r	.
.	16c#JJ	16a' 16cc#'	.
*	*clefG2	*	*
=50	=50	=50	=50
2r	16dLL	8g' 8b'	2r
.	16e	.	.
.	16f#	8r	.
.	16gJJ	.	.
*	*	*clefF4	*
.	16aLL	8G' 8B'	.
.	16b	.	.
.	16cc	8r	.
.	16cc#JJ	.	.
=51	=51	=51	=51
2r	16ddLL	8F#' 8A'	2r
.	16ee	.	.
.	16ff#	8r	.
.	16ggJJ	.	.
.	16aaLL	4r	.
.	16bb	.	.
.	16ccc#	.	.
.	16dddJJ	.	.
=52	=52	=52	=52
2r	4r	16AALL	2r
.	.	16BB	.
.	.	16C#	.
.	.	16DJJ	.
*	*clefF4	*	*
.	8FF#L 8D	16ELL	.
.	.	16F#	.
.	(8FF#J 8D	16G	.
.	.	16G#JJ	.
=53	=53	=53	=53
2r	8GGL) 8C#	16ALL	2r
.	.	16B	.
.	8GGJ 8C#	16c#	.
.	.	16dJJ	.
*	*	*clefG2	*
.	8r	16eLL	.
.	.	16f#	.
.	16r	16g	.
.	16C#' 16G'	16g#JJ	.
=54	=54	=54	=54
2r	8D' 8F#'	16aLL	2r
.	.	16b	.
.	8r	16cc#	.
.	.	16ddJJ	.
.	8F#' 8d'	16eeLL	.
.	.	16ff#	.
.	8r	16gg	.
.	.	16gg#JJ	.
=55	=55	=55	=55
2r	8A' 8c#'	8aa	2r
.	8r	8r	.
.	8AA'	4r	.
.	8r	.	.
=56:|!|:	=56:|!|:	=56:|!|:	=56:|!|:
2r	16AAALL	8ee'L 8gg'	2r
.	16BBB	.	.
.	16CC#	(8eeJ 8gg	.
.	16DDJJ	.	.
.	16EELL	8g'L) 8cc#'	.
.	16FF#	.	.
.	16GG	(8gJ 8cc#	.
.	16GG#JJ	.	.
=57	=57	=57	=57
2r	16AALL	8f#'L) 8dd'	2r
.	16BB	.	.
.	16C#	8f#'J 8dd'	.
.	16DJJ	.	.
.	16ELL	8r	.
.	16F#	.	.
.	16G	16r	.
.	16G#JJ	16d' 16f#'	.
*	*clefG2	*	*
=58	=58	=58	=58
2r	16ALL	8c#' 8g'	2r
.	16B	.	.
.	16c#	8r	.
.	16dJJ	.	.
*	*	*clefF4	*
.	16eLL	8G' 8c#'	.
.	16f#	.	.
.	16g	8r	.
.	16g#JJ	.	.
=59	=59	=59	=59
2r	16aLL	8F#' 8d'	2r
.	16b	.	.
.	16cc#	8r	.
.	16ddJJ	.	.
.	16eeLL	4r	.
.	16ff#	.	.
.	16gg	.	.
.	16aaJJ	.	.
=60	=60	=60	=60
2r	4r	16AALL	2r
.	.	16BB	.
.	.	16C#	.
.	.	16DJJ	.
*	*clefF4	*	*
.	8GGGL 8GG	16ELL	.
.	.	16F#	.
.	(8GGGJ 8GG	16G	.
.	.	16G#JJ	.
=61	=61	=61	=61
2r	8FFF#L) 8FF#	16ALL	2r
.	.	16B	.
.	8FFF#J 8FF#	16c#	.
.	.	16dJJ	.
*	*	*clefG2	*
.	8.r	16eLL	.
.	.	16f#	.
.	.	16g	.
.	16D' 16F#'	16g#JJ	.
=62	=62	=62	=62
2r	8G'	16aLL	2r
.	.	16b	.
.	8r	16cc#	.
.	.	16ddJJ	.
.	8AA' 8C#' 8E'	16eeLL	.
.	.	16ff#	.
.	8r	16gg	.
.	.	16gg#JJ	.
=63	=63	=63	=63
2r	8D'	16aaLL	2r
.	.	16bb	.
.	8r	16ccc#	.
.	.	16dddJJ	.
.	8DD'	4r	.
.	8r	.	.
=64:|!	=64:|!	=64:|!	=64:|!
4F#	4D	[2A	2r
(8GL	4AA	.	.
8EJ)	.	.	.
=65	=65	=65	=65
(8EL	4FF#	2A]	2r
8DJ)	.	.	.
(8DL	4r	.	.
8C#J)	.	.	.
=66	=66	=66	=66
(8C#L	4GG	[2d	2r
8BBJ)	.	.	.
(8BBL	4GG	.	.
8DJ)	.	.	.
=67	=67	=67	=67
8DL	2FF#	2d]	2r
8AAJ	.	.	.
4AA	.	.	.
=68	=68	=68	=68
8r	4.DD	4a	2r
16FF#LL	.	.	.
16AAJJ	.	.	.
[4D	.	4dd	.
.	8FF#	.	.
=69	=69	=69	=69
8DL]	4.AA	4ee	2r
16C#L	.	.	.
16EJJ	.	.	.
[4G	.	4aa	.
.	8C#	.	.
=70	=70	=70	=70
8GL]	4.D	2ddd	2r
16F#L	.	.	.
16EJJ	.	.	.
8F#L	.	.	.
8G#J	8BB	.	.
=71	=71	=71	=71
4A	8C#L	4aa	2r
.	8BBJ	.	.
4r	8AA	4r	.
.	8r	.	.
=72:|!|:	=72:|!|:	=72:|!|:	=72:|!|:
2r	[2AAA	4r	4r
.	.	([4ccc#	(4gg
=73	=73	=73	=73
2r	2AAA]	8ccc#L]	4ff#)
.	.	8dddJ)	.
.	.	8ff#'L	4dd
.	.	8ff#'J	.
=74	=74	=74	=74
2r	2AA	4r	4r
.	.	(4gg	([4cc#
=75	=75	=75	=75
2r	2A	4ff#)	8cc#L]
.	.	.	8ddJ)
.	.	4dd	8f#'L
.	.	.	8f#'J
=76	=76	=76	=76
4r	4r	2A	2r
([4G	4C#	.	.
=77	=77	=77	=77
8GL]	4D	4d	2r
8F#J)	.	.	.
8D'L	4FF#	4a	.
8D'J	.	.	.
=78	=78	=78	=78
8DL	4GG	4ee	2r
16C#L	.	.	.
16BBJJ	.	.	.
8C#L	8AAL	4aa	.
8C#J	8AAJ	.	.
=79	=79	=79	=79
4D	4DD	4ddd	2r
4r	4DD	4r	.
=80:|!	=80:|!	=80:|!	=80:|!
2r	4D 4d	24f#LL	2r
.	.	24ff#	.
.	.	24f#J	.
.	.	24gL	.
.	.	24gg	.
.	.	24gJJ	.
.	8r	24f#LL	.
.	.	24ff#	.
.	.	24f#J	.
.	8C# 8c#	24aL	.
.	.	24aa	.
.	.	24aJJ	.
=81	=81	=81	=81
2r	4BB 4B	24dLL	2r
.	.	24dd	.
.	.	24dJ	.
.	.	24eL	.
.	.	24ee	.
.	.	24eJJ	.
.	8r	24dLL	.
.	.	24dd	.
.	.	24dJ	.
.	8AA 8A	24f#L	.
.	.	24ff#	.
.	.	24f#JJ	.
=82	=82	=82	=82
2r	8GGL 8G	24BLL	2r
.	.	24b	.
.	.	24BJ	.
.	8EEJ 8E	24c#L	.
.	.	24cc#	.
.	.	24c#JJ	.
.	8AAL 8A	24dLL	.
.	.	24dd	.
.	.	24dJ	.
.	8GGJ 8G	24eL	.
.	.	24ee	.
.	.	24eJJ	.
=83	=83	=83	=83
2r	4FF# 4F#	24dLL	2r
.	.	24dd	.
.	.	24dJ	.
.	.	24c#L	.
.	.	24cc#	.
.	.	24c#JJ	.
.	8r	24BLL	.
.	.	24b	.
.	.	24BJ	.
.	8GG 8G	24A#L	.
.	.	24a#	.
.	.	24A#JJ	.
=84	=84	=84	=84
2r	8FF#L 8F#	24ALL	2r
.	.	24a	.
.	.	24AJ	.
.	8DDJ 8D	24BL	.
.	.	24b	.
.	.	24BJJ	.
*	*	*clefF4	*
.	8DD#L 8D#	24F#LL	.
.	.	24f#	.
.	.	24F#J	.
.	8BBBJ 8BB	24AL	.
.	.	24a	.
.	.	24AJJ	.
=85	=85	=85	=85
2r	8EEL 8E	24GLL	2r
.	.	24g	.
.	.	24GJ	.
.	8BBB#J 8BB#	24AL	.
.	.	24a	.
.	.	24AJJ	.
.	8CC#L 8C#	24ELL	.
.	.	24e	.
.	.	24EJ	.
.	8AAAJ 8AA	24GL	.
.	.	24g	.
.	.	24GJJ	.
=86	=86	=86	=86
2r	8DDL 8D	24F#LL	2r
.	.	24f#	.
.	.	24F#J	.
.	8AAA#J 8AA#	24EL	.
.	.	24e	.
.	.	24EJJ	.
.	8BBBL 8BB	24DLL	.
.	.	24d	.
.	.	24DJ	.
.	8GGG#J 8GG#	24EL	.
.	.	24e	.
.	.	24EJJ	.
=87	=87	=87	=87
2r	4AAA 4AA	24C#LL	2r
.	.	24c#	.
.	.	24C#J	.
.	.	24BBL	.
.	.	24B	.
.	.	24BBJJ	.
.	8r	8AA	.
.	8AAA	8r	.
=88:|!|:	=88:|!	=88:|!	=88:|!
[2AA	4r	24C#LL	2r
.	.	24c#	.
.	.	24C#J	.
.	.	24EL	.
.	.	24e	.
.	.	24EJJ	.
*	*	*clefG2	*
.	8r	24GLL	.
.	.	24g	.
.	.	24GJ	.
.	8C#	24B-L	.
.	.	24b-	.
.	.	24B-JJ	.
=89	=89	=89	=89
2AA]	8DL	24ALL	2r
.	.	24a	.
.	.	24AJ	.
.	8GJ	24c#L	.
.	.	24cc#	.
.	.	24c#JJ	.
.	8FL	24dLL	.
.	.	24dd	.
.	.	24dJ	.
.	8DJ	24fL	.
.	.	24ff	.
.	.	24fJJ	.
=90	=90	=90	=90
[2AA	4.C#	24eLL	2r
.	.	24ee	.
.	.	24eJ	.
.	.	24gL	.
.	.	24gg	.
.	.	24gJJ	.
.	.	24aLL	.
.	.	24aa	.
.	.	24aJ	.
.	8CC#	24b-L	.
.	.	24bb-	.
.	.	24b-JJ	.
=91	=91	=91	=91
2AA]	8DDL	24aLL	2r
.	.	24aa	.
.	.	24aJ	.
.	8GGJ	24cc#L	.
.	.	24ccc#	.
.	.	24cc#JJ	.
.	8FFL	24ddLL	.
.	.	24ddd	.
.	.	24ddJ	.
.	8DDJ	24ffL	.
.	.	24fff	.
.	.	24ffJJ	.
=92	=92	=92	=92
[2AA	8CC#L	24eeLL	2r
.	.	24eee	.
.	.	24eeJ	.
.	8AAAJ	24cc#L	.
.	.	24ccc#	.
.	.	24cc#JJ	.
.	8BBBL	24aLL	.
.	.	24aa	.
.	.	24aJ	.
.	8CC#J	24gL	.
.	.	24gg	.
.	.	24gJJ	.
=93	=93	=93	=93
4AA]	8DDL	24f#LL	2r
.	.	24ff#	.
.	.	24f#J	.
.	8EEJ	24eL	.
.	.	24ee	.
.	.	24eJJ	.
4r	8FFL	24dLL	.
.	.	24dd	.
.	.	24dJ	.
.	8FF#J	24cL	.
.	.	24cc	.
.	.	24cJJ	.
=94	=94	=94	=94
2r	8GGL	24BLL	2r
.	.	24b	.
.	.	24BJ	.
.	8GG#J	24G#L	.
.	.	24g#	.
.	.	24G#JJ	.
.	8AAL	24ALL	.
.	.	24a	.
.	.	24AJ	.
*	*	*clefF4	*
.	8AAAJ	24C#L	.
.	.	24c#	.
.	.	24C#JJ	.
=95	=95	=95	=95
2r	(8DDL	24DLL	2r
.	.	24d	.
.	.	24DJJ	.
.	16FF#L	8r	.
.	16AAJJ)	.	.
.	8D	4r	.
.	8r	.	.
*	*clefG2	*clefG2	*
=96:|!	=96:|!	=96:|!	=96:|!
2r	(8f#L 8a	(8ff#L 8aa	2r
.	8c#'J) 8e#'	8cc#'J) 8ee#'	.
.	(8c#L 8e#	(8cc#L 8ee#	.
.	8d'J) 8f#'	8dd'J) 8ff#'	.
=97	=97	=97	=97
2r	(8dL 8f#	(8ddL 8ff#	2r
.	8A#'J) 8c#'	8a#'J) 8cc#'	.
.	(8A#L 8c#	(8a#L 8cc#	.
.	8B'J) 8d'	8b'J) 8dd'	.
*	*clefF4	*	*
=98	=98	=98	=98
2r	(8BL 8d	(8bL 8dd	2r
.	8F#'J) 8A#'	8f#'J) 8a#'	.
.	(8F#L 8A#	(8f#L 8a#	.
.	8G'J) 8B'	8g'J) 8b'	.
=99	=99	=99	=99
2r	(8GL 8B	(8gL 8b	2r
.	8E#'J) 8G#'	8e#'J) 8g#'	.
.	(8E#L 8G#	(8e#L 8g#	.
.	8F#'J) 8A'	8f#'J) 8a'	.
=100	=100	=100	=100
2r	4.F# 4.A	4.f# 4.a	2r
.	8D 8F#	8d 8f#	.
=101	=101	=101	=101
2r	(8DL 8F#	(8dL 8f#	2r
.	8E'J) 8G'	8e'J) 8g'	.
.	(8EL 8G	(8eL 8g	.
.	8AA'J) 8E'	8A'J) 8e'	.
=102	=102	=102	=102
2r	(8AAL 8E	(8AL 8e	2r
.	8D'J) 8F#'	8d'J) 8f#'	.
.	(8DL 8F#	(8dL 8f#	.
.	8FF#'J) 8D'	8F#'J) 8d'	.
=103	=103	=103	=103
2r	(8FF#L 8D	(8F#L 8d	2r
.	8AA'J) 8E'	8A'J) 8e'	.
.	4r	4r	.
=104:|!	=104:|!	=104:|!	=104:|!
2r	2r	8a' 8ee'	2r
.	.	(4dd 4ff#	.
.	.	8ee') 8gg'	.
*	*clefG2	*	*
=105	=105	=105	=105
2r	(8f#L 8a	4ff#' 4aa'	2r
.	8c#'J) 8e'	.	.
.	(8c#L 8e	4r	.
.	8d'J) 8f#'	.	.
=106	=106	=106	=106
2r	4A 4e	8ee' 8gg'	2r
.	.	(4dd 4ff#	.
.	4r	.	.
.	.	8a') 8ee'	.
*	*clefF4	*	*
=107	=107	=107	=107
2r	(8F#L 8d	4f#' 4dd'	2r
.	8E'J) 8A'	.	.
.	(8EL 8A	4r	.
.	8D'J) 8F#'	.	.
=108	=108	=108	=108
2r	4AA 4E	8A' 8e'	2r
.	.	(4d 4f#	.
.	4r	.	.
.	.	8e') 8g'	.
=109	=109	=109	=109
2r	(8FF#L 8D	4f#' 4a'	2r
.	8EE'J) 8AA'	.	.
.	(8EEL 8AA	4r	.
.	8DD'J) 8FF#'	.	.
=110	=110	=110	=110
2r	4AAA 4EE	8aa'	2ee 2gg
.	.	(4bb	.
.	4r	.	.
.	.	8ccc#')	.
=111	=111	=111	=111
2r	4DD	4ddd	4dd 4ff#
.	4r	4dd	4r
*	*clefG2	*	*
=112	=112	=112	=112
2r	8A' 8e'	2r	2r
.	(4d 4f#	.	.
.	8e') 8g'	.	.
=113	=113	=113	=113
2r	4f#' 4a'	(8ff#L 8aa	2r
.	.	8cc#'J) 8ee'	.
.	4r	(8cc#L 8ee	.
.	.	8dd'J) 8ff#'	.
=114	=114	=114	=114
2r	8e' 8g'	4a 4ee	2r
.	(4d 4f#	.	.
.	.	4r	.
.	8A') 8e'	.	.
=115	=115	=115	=115
2r	4F#' 4d'	(8f#L 8dd	2r
.	.	8e'J) 8a'	.
.	4r	(8eL 8a	.
.	.	8d'J) 8f#'	.
*	*clefF4	*	*
=116	=116	=116	=116
2r	8AA' 8E'	4A 4e	2r
.	(4D 4F#	.	.
.	.	4r	.
.	8E') 8G'	.	.
=117	=117	=117	=117
2r	4F#' 4A'	8dd' 8ff#'	2r
.	.	(4ee 4gg	.
.	4r	.	.
.	.	8ee#') 8gg#'	.
=118	=118	=118	=118
2r	4r	8ff#' 8aa'	2r
.	.	(4ee 4gg 4bb	.
.	[4AA	.	.
.	.	8ee') 8gg' 8ccc#'	.
=119	=119	=119	=119
2r	8AAL]	4dd 4ff# 4ddd	2r
.	8DDJ	.	.
.	4r	4r	.
=120	=120	=120	=120
2r	4D	2r	2r
.	(8.AA#L	.	.
.	32BBLL	.	.
.	32C#JJJ)	.	.
=121	=121	=121	=121
2r	4BB	2r	4dd
.	(8.FF#L	.	(8.a#L
.	32GGLL	.	32bLL
.	32AAJJJ)	.	32cc#JJJ)
=122	=122	=122	=122
2r	4GG	4r	4b [4bb
.	(8.CC#L	(8.eeL	[4ee 4bb]
.	32DDLL	32ff#LL	.
.	32EEJJJ)	32ggJJJ)	.
=123	=123	=123	=123
2r	4FF#	[4aa	4ee]
.	[4F#	(8.aaL]	[4dd
.	.	32bbLL	.
.	.	32ccc#JJJ)	.
=124	=124	=124	=124
2r	8.F#L]	4ddd	4dd]
.	32GLL	.	.
.	32AJJJ	.	.
.	[4B	(8.ddL	[4b
.	.	32eeLL	.
.	.	32ff#JJJ)	.
=125	=125	=125	=125
4r	8.BL]	[4gg	4b] 4dd
.	32c#LL	.	.
.	32dJJJ	.	.
(8.AL	4e	(8.ggL]	4g 4cc#
32BLL	.	32ff#LL	.
32c#JJJ)	.	32eeJJJ)	.
=126	=126	=126	=126
4d	4r	([8ddL	4f#
.	.	32ddLL]	.
.	.	32cc#	.
.	.	32b	.
.	.	32aJJJ)	.
(8.EL	4BB 4D	8.g#L	4r
32F#LL	.	[16eeJk	.
32G#JJJ)	.	.	.
=127	=127	=127	=127
2A	2AA 2C#	(4ee]	4.e
.	.	8a')	.
.	.	8r	8r
=:|!	=:|!	=:|!	=:|!
=128	=128	=128	=128
2r	2r	2r	(8.AL
.	.	.	32BLL
.	.	.	32c#JJJ)
.	.	.	(8.dL
.	.	.	32eLL
.	.	.	32f#JJJ)
=129	=129	=129	=129
2r	(8.AAAL	2r	(4g
.	32BBBLL	.	.
.	32CC#JJJ)	.	.
.	(8.DDL	.	8.f#L)
.	32EELL	.	16dJk
.	32FF#JJJ)	.	.
=130	=130	=130	=130
2r	(4GG	(8.aL	4c#
.	.	32bLL	.
.	.	32cc#JJJ)	.
.	8.FF#L)	(8.ddL	4r
.	16DDJk	32eeLL	.
.	.	32ff#JJJ)	.
=131	=131	=131	=131
(8.AAL	4CC#	(4gg	2r
32BBLL	.	.	.
32C#JJJ)	.	.	.
(8.DL	4DD	8.ff#L)	.
32ELL	.	16ddJk	.
32F#JJJ)	.	.	.
=132	=132	=132	=132
4G	4GG	[2a	(8.AL
.	.	.	32BLL
.	.	.	32c#JJJ)
[4AA	4FF# 4F#	.	(8.dL
.	.	.	32eLL
.	.	.	32f#JJJ)
=133	=133	=133	=133
2AA]	4EE 4E	(8.aL]	4g
.	.	32bLL	.
.	.	32cc#JJJ)	.
.	4DD 4D	8.ddL	4f#
.	.	16eeJk	.
=134	=134	=134	=134
2r	8AA	8.ff#L	4dd
.	8r	.	.
.	.	16ggJk	.
.	[4AAA	(8.aaL	4ee 4gg
.	.	32bbLL	.
.	.	32ccc#JJJ)	.
=135	=135	=135	=135
2r	(8.AAAL]	8ddd	8dd 8ff#
.	.	8r	8r
.	32BBBLL	.	.
.	32CC#JJJ)	.	.
.	8DD	4r	4r
.	8r	.	.
=136:|!	=136:|!	=136:|!	=136:|!
(4A	(4D	8ff#L	2r
.	.	[8aaJ	.
([4A) 4c#	(4G)	16aaLL]	.
.	.	16gg	.
.	.	16ff#	.
.	.	16eeJJ	.
=137	=137	=137	=137
4A]) 4d	4F#)	8ddL	2r
.	.	[8ff#J	.
[4d	(4D	16ff#LL]	.
.	.	16ee	.
.	.	16dd	.
.	.	([16cc#JJ	.
=138	=138	=138	=138
2d]	4G	16cc#LL]	2r
.	.	16b	.
.	.	16dd	.
.	.	16cc#JJ	.
.	4B	16eeLL	.
.	.	16dd	.
.	.	16cc#	.
.	.	16bJJ	.
=139	=139	=139	=139
8d	8d)	16aLL	2r
.	.	16g#	.
8r	8r	16b	.
.	.	16aJJ	.
4r	4r	16gLL	.
.	.	16f#	.
.	.	16e	.
.	.	16dJJ)	.
=140	=140	=140	=140
2r	4r	(16c#LL	4r
.	.	16d	.
.	.	16e	.
.	.	16dJJ)	.
.	4DD [4AA 4D	4f#^	8r
.	.	.	8A
=141	=141	=141	=141
2r	8CC# 8AA] 8C#	(16d#LL	4r
.	.	16e	.
.	8r	16f#	.
.	.	16eJJ)	.
.	4CC# [4AA 4C#	4g^	8r
.	.	.	8A
=142	=142	=142	=142
2r	8DD 8AA] 8D	16c#LL	4r
.	.	16d	.
.	8r	16e	.
.	.	16dJJ	.
.	(4DD	[4f#	8dL
.	.	.	[8AJ
=143	=143	=143	=143
2r	(4AA)	(4f#]	(4A] 4d
.	8AAA)	8e)	8A) 8c#
.	8r	8r	8r
=144:|!|:	=144:|!|:	=144:|!|:	=144:|!|:
4r	4A	(8a	2r
.	.	4gg)	.
([4A 4e	(4G	.	.
.	.	(16eeLL	.
.	.	16cc#JJ)	.
=145	=145	=145	=145
2A]) 2d	4F#)	(8dd	2r
.	.	4aa)	.
.	4D	.	.
.	.	(16ff#LL	.
.	.	16ddJJ)	.
=146	=146	=146	=146
4c#	4A	(8a	2r
.	.	4gg)	.
([4A 4e	(4G	.	.
.	.	(16eeLL	.
.	.	16cc#JJ)	.
=147	=147	=147	=147
2A]) 2d	4F#)	(8dd	2r
.	.	4aa)	.
.	4D	.	.
.	.	(16ff#LL	.
.	.	16ddJJ)	.
=148	=148	=148	=148
2A 2e	(4A	(16cc#LL	2r
.	.	16dd	.
.	.	16ee	.
.	.	16ff#JJ	.
.	4G	16ggLL	.
.	.	16aa	.
.	.	16bb	.
.	.	16ccc#JJ	.
=149	=149	=149	=149
2A 2d	4F#	16dddLL	2r
.	.	16ccc#	.
.	.	16eee	.
.	.	16dddJJ	.
.	4D	16ccc#LL	.
.	.	16bb	.
.	.	16aa	.
.	.	16gg#JJ)	.
=150	=150	=150	=150
4r	4A)	(16bbLL	4r
.	.	16aa	.
.	.	16gg	.
.	.	16ff#JJ	.
[4G	4AA	16eeLL	8r
.	.	16dd	.
.	.	16cc#	8cc#
.	.	16eeJJ)	.
=151	=151	=151	=151
(4G]	4.D	(4ee	(4cc#
8F#)	.	8dd)	8dd)
8r	8r	8r	8r
*	*clefG2	*	*
=152:|!	=152:|!	=152:|!	=152:|!
2r	[4f# [4a	[4ff# [4aa	2r
.	8.f#L] 8.a]	8.ff#L] 8.aa]	.
.	16e#Jk 16g#	16ee#Jk 16gg#	.
=153	=153	=153	=153
2r	(16eLL 16g	(16eeLL 16gg	2r
.	16d# 16f#	16dd# 16ff#	.
.	16d 16f	16dd 16ff	.
.	16c#JJ 16e	16cc#JJ 16ee	.
.	16cLL 16e-	16ccLL 16ee-	.
.	16B 16d	16b 16dd	.
.	16A# 16c#	16a# 16cc#	.
.	16AJJ) 16c	16aJJ) 16cc	.
*	*clefF4	*	*
=154	=154	=154	=154
2r	8G' 8B'	8g' 8b'	2r
.	8r	8r	.
.	8GG' 8BB' 8D' 8G'	8dd' 8gg' 8bb' 8ddd'	.
.	8r	8r	.
=155	=155	=155	=155
2r	8D' 8F#' 8A' 8d'	8a' 8dd' 8ff#' 8aa'	2r
.	8r	8r	.
.	4r	4r	.
=156	=156	=156	=156
2r	[4D [4F#	[4d [4f#	2r
.	16DLL] 16F#]	16dLL] 16f#]	.
.	(16E 16G	(16e 16g	.
.	16E# 16G#	16e# 16g#	.
.	16F#JJ 16A	16f#JJ 16a	.
=157	=157	=157	=157
2r	16GLL 16B-	16gLL 16b-	2r
.	16G# 16B	16g# 16b	.
.	16A 16c	16a 16cc	.
.	16A#JJ 16c#	16a#JJ 16cc#	.
.	16BLL 16d	16bLL 16dd	.
.	16c 16e-	16cc 16ee-	.
.	16c# 16e	16cc# 16ee	.
.	16dJJ) 16f	16ddJJ) 16ff	.
=158	=158	=158	=158
2r	8d' 8f#'	8dd' 8ff#'	2r
.	8r	8r	.
.	8DD' 8FF#' 8AA' 8D'	8a' 8dd' 8ff#' 8aa'	.
.	8r	8r	.
=159	=159	=159	=159
2r	8AA' 8C#' 8E' 8A'	8e' 8a' 8cc#' 8ee'	2r
.	8r	8r	.
.	4r	4r	.
=160:|!|:	=160:|!|:	=160:|!|:	=160:|!|:
2r	[4e [4g	[4ee [4gg	2r
.	8.eL] 8.g]	8.eeL] 8.gg]	.
.	(16d#Jk 16f#	(16dd#Jk 16ff#	.
=161	=161	=161	=161
2r	16dLL 16f	16ddLL 16ff	2r
.	16c# 16e	16cc# 16ee	.
.	16c 16e-	16cc 16ee-	.
.	16BJJ 16d	16bJJ 16dd	.
.	16A#LL 16c#	16a#LL 16cc#	.
.	16A 16c	16a 16cc	.
.	16G 16B	16g 16b	.
.	16F#JJ) 16A	16f#JJ) 16a	.
=162	=162	=162	=162
2r	8E' 8G'	8e' 8g'	2r
.	8r	8r	.
.	8GGG' 8GG'	8e' 8a' 8cc#' 8ee'	.
.	8r	8r	.
=163	=163	=163	=163
2r	8FFF#' 8FF#'	8a' 8dd' 8ff#' 8aa'	2r
.	8r	8r	.
.	4r	4r	.
=164	=164	=164	=164
2r	[4C# [4E	[4c# [4e	2r
.	16C#LL] 16E]	16c#LL] 16e]	.
.	(16D 16F	(16d 16f	.
.	16D# 16F#	16d# 16f#	.
.	16EJJ 16G	16eJJ 16g	.
=165	=165	=165	=165
2r	16E#LL 16G#	16e#LL 16g#	2r
.	16F# 16A	16f# 16a	.
.	16G 16B-	16g 16b-	.
.	16G#JJ 16B	16g#JJ 16b	.
.	16ALL 16c	16aLL 16cc	.
.	16A# 16c#	16a# 16cc#	.
.	16B 16d	16b 16dd	.
.	16cJJ) 16e-	16ccJJ) 16ee-	.
=166	=166	=166	=166
2r	8c#' 8e'	8cc#' 8ee'	2r
.	8r	8r	.
.	8AAA' 8AA'	8cc#' 8ee' 8aa' 8ccc#'	.
.	8r	8r	.
=167	=167	=167	=167
2r	8DD' 8D'	8dd' 8ff#' 8aa' 8ddd'	2r
.	8r	8r	.
.	4r	4r	.
=168:|!	=168:|!	=168:|!	=168:|!
4d	[2D	(8ff#L	2r
.	.	8ddd'J)	.
4c#	.	(8eeL	.
.	.	8ddd'J)	.
=169	=169	=169	=169
4B 4d	2D_	(8ddL	2r
.	.	8ddd'J)	.
[4A 4c#	.	(8cc#L	.
.	.	8ddd'J)	.
=170	=170	=170	=170
4A] 4c	2D_	(8ccL	2r
.	.	8ddd'J)	.
4G 4B	.	(8bL	.
.	.	8ddd'J)	.
=171	=171	=171	=171
4G 4B-	2D]	(8b-L	2r
.	.	8ddd'J)	.
4F# 4A	.	(8aL	.
.	.	8ddd'J)	.
=172	=172	=172	=172
4F# 4A	[2AA	(8aL	2r
.	.	8aa'J)	.
4G 4B	.	(8bL	.
.	.	8aa'J)	.
=173	=173	=173	=173
4E 4G	2AA_	(8gL	2r
.	.	8aa'J)	.
4D 4F#	.	(8f#L	.
.	.	8aa'J)	.
=174	=174	=174	=174
4C# 4E	2AA_	(8eL	2r
.	.	8aa'J)	.
4BB 4D	.	(8dL	.
.	.	8aa'J)	.
=175	=175	=175	=175
4C# 4E	4.AA]	(8eL	2r
.	.	8aa'J)	.
8A	.	4r	.
8r	8r	.	.
=176:|!|:	=176:|!|:	=176:|!|:	=176:|!|:
4r	4r	(8eL	2r
.	.	8gg'J)	.
[4A	(4C#	4r	.
=177	=177	=177	=177
2A_	8DL)	4r	2r
.	8F#J	.	.
.	4r	(8ff#L	.
.	.	8d'J)	.
=178	=178	=178	=178
4A]	4r	(8eL	2r
.	.	8gg'J)	.
[4A	(4C#	4r	.
=179	=179	=179	=179
2A_	8DL)	4r	2r
.	8F#J	.	.
.	4r	(8ff#L	.
.	.	8d'J)	.
=180	=180	=180	=180
4A]	4r	(8eL	2r
.	.	8gg'J)	.
4r	8C#' 8A'	4r	.
.	8r	.	.
=181	=181	=181	=181
2r	4r	(8ff#L	2r
.	.	8d'J)	.
.	8D' 8A'	4r	.
.	8r	.	.
=182	=182	=182	=182
2r	8r	(8eeL	2r
.	8AA' 8A'	8d'J)	.
.	8r	(8c#L	.
.	8AA' 8G'	8ee'J)	.
=183	=183	=183	=183
2r	8r	(8dL	2r
.	8D 8F#	8dd'J)	.
.	8DD	4r	.
.	8r	.	.
=184:|!	=184:|!	=184:|!	=184:|!
2r	8.DD'L 8.D'	8.A'L 8.d' 8.f#'	2r
.	16DD'Jk 16D'	16A'Jk 16e' 16g'	.
.	8.DD'L 8.D'	8.A'L 8.f#' 8.a'	.
.	16AAA'Jk 16AA'	16A'Jk 16c#' 16e'	.
=185	=185	=185	=185
2r	([4BBB [4BB 4F#	4.d	2r
.	8BBB]) 8BB] 8D	.	.
.	16r	16r	.
.	16F# 16f#	16dd 16ccc#	.
=186	=186	=186	=186
2r	8.G'L 8.g'	8.dd'L 8.bb'	2r
.	16G'Jk 16g'	16dd'Jk 16ccc#'	.
.	8.B'L 8.g'	8.dd'L 8.ddd'	.
.	16B'Jk 16g'	16dd'Jk 16bb'	.
=187	=187	=187	=187
2r	([4d 4f#	([4dd 4aa	2r
.	8d]) 8a	8dd]) 8ff#	.
.	8r	8r	.
=188	=188	=188	=188
2r	8.DD'L 8.AA' 8.D'	8.A'L 8.d' 8.f#'	2r
.	16DD'Jk 16AA' 16D'	16A'Jk 16e' 16g'	.
.	8.DD'L 8.AA' 8.D'	8.A'L 8.f#' 8.a'	.
.	16DD'Jk 16AA' 16D'	16A'Jk 16f#' 16b'	.
=189	=189	=189	=189
2r	4.CC# 4.AA 4.C#	([4A [4e 4a	2r
.	.	8A']) 8e'] 8g'	.
.	16r	16r	.
.	16C# 16A 16c#	16a 16ee 16gg	.
=190	=190	=190	=190
2r	8.D'L 8.A' 8.d'	8.a'L 8.dd' 8.ff#'	2r
.	16D'Jk 16A' 16d'	16a'Jk 16cc#' 16ee'	.
.	8.D'L 8.A' 8.d'	8.a'L 8.dd' 8.ff#'	.
.	16D'Jk 16A'	16a'Jk 16ee' 16gg'	.
=191	=191	=191	=191
2r	4.AA 4.A	([4a 4dd 4ff#	2r
.	.	8a]) 8cc# 8ee	.
.	8r	8r	.
=192:|!|:	=192:|!|:	=192:|!|:	=192:|!|:
2r	8.AA'L 8.A'	8.c#'L 8.e'	2r
.	16AA'Jk 16A'	16c#'Jk 16f#'	.
.	8.AA'L 8.G'	8.c#'L 8.g'	.
.	16AA'Jk 16G'	16c#'Jk 16e'	.
=193	=193	=193	=193
2r	([4AA 4F#	([4d 4a	2r
.	8AA]) 8D	8d]) 8f#	.
.	8r	16r	.
.	.	16ff#	.
*	*clefG2	*	*
=194	=194	=194	=194
2r	8.A'L 8.a'	8.cc#'L 8.gg'	2r
.	16A'Jk 16a'	16cc#'Jk 16ff#'	.
.	8.A'L 8.g'	8.cc#'L 8.gg'	.
.	16A'Jk 16g'	16cc#'Jk 16ee'	.
=195	=195	=195	=195
2r	([4A 4f#	([4dd 4aa	2r
.	8A]) 8d	8dd]) 8ddd	.
.	8r	16r	.
.	.	16d 16f#	.
*	*clefF4	*	*
=196	=196	=196	=196
2r	8.AA'L 8.A'	8.c#'L 8.e'	2r
.	16AA'Jk 16A'	16c#'Jk 16f#'	.
.	8.AA'L 8.G'	8.c#'L 8.g'	.
.	16AA'Jk 16G'	16c#'Jk 16e'	.
=197	=197	=197	=197
2r	([4AA 4F#	([4d 4a	2r
.	8AA]) 8D	8d]) 8f#	.
.	16r	16r	.
.	16d	16ff# 16aa	.
=198	=198	=198	=198
2r	8.A'L 8.e'	8.gg'L 8.aa'	2r
.	16A'Jk 16d'	16ff#'Jk 16aa'	.
.	8.A'L 8.e'	8.gg'L 8.aa'	.
.	16A'Jk 16c#'	16ee'Jk 16aa'	.
=199	=199	=199	=199
2r	4.D 4.d	(4ff# [4aa	2r
.	.	8dd) 8aa]	.
.	8r	8r	.
=200:|!	=200:|!	=200:|!	=200:|!
*k[b-]	*k[b-]	*k[b-]	*k[b-]
(8FL 8A	[2D	(4aa	2r
8dJ	.	.	.
8GL 8B-	.	4cc#	.
8dJ)	.	.	.
=201	=201	=201	=201
(8FL 8A	2D_	(4.dd)	2r
8dJ	.	.	.
8F#L 8A	.	.	.
8cJ)	.	8ee-)	.
=202	=202	=202	=202
(8GL	2D_	(8ee-L	2r
8BJ	.	8ddJ)	.
8EL	.	(8ddL	.
8B-J)	.	8cc#J)	.
=203	=203	=203	=203
(8FL	2D]	(4cc#	2r
8B-J	.	.	.
8AL	.	8dd)	.
8FJ)	.	8r	.
=204	=204	=204	=204
(8DL	4D	4ff	2r
8AJ	.	.	.
8DL	(4BB	(4ff	.
8G#J)	.	.	.
=205	=205	=205	=205
(8C#L	4BB-)	4.ee)	2r
8GJ	.	.	.
8C#L	4AA	.	.
8GJ)	.	8ee	.
=206	=206	=206	=206
(8DL	4AA	(8ddL	2r
8FJ	.	8cc#J	.
8DL	4BB-	8ddL	.
8GJ)	.	8eeJ)	.
=207	=207	=207	=207
(4C#	4.AA	4a	2r
8A)	.	4r	.
8r	8r	.	.
=208:|!|:	=208:|!|:	=208:|!	=208:|!|:
8GL	4r	(8.ggL	2r
(8GJ	.	.	.
.	.	16eeJk	.
8EL	(4BB-	[4ccc#)	.
8GJ	.	.	.
=209	=209	=209	=209
8EL	2AA)	4ccc#]	2r
8GJ	.	.	.
8FL	.	(8.dddL	.
8DJ)	.	.	.
.	.	16aaJk)	.
=210	=210	=210	=210
8GL	4r	(8.ggL	2r
(8GJ	.	.	.
.	.	16eeJk	.
8EL	(4BB-	[4ccc#)	.
8GJ	.	.	.
=211	=211	=211	=211
8EL	2AA)	4ccc#]	2r
8GJ	.	.	.
8FL	.	(8.dddL	.
[8DJ) [8F	.	.	.
.	.	16eeeJk)	.
=212	=212	=212	=212
4.D;] 4.F;]	4.GG#; 4.BB;	4.fff;	2r
8r	8r	(8eee	.
=213	=213	=213	=213
2r	8r	8dddL	2r
.	(8GG 8E	8ccc#J	.
.	8FFL 8D	8dddL	.
.	8GGJ) 8E	8bb-J)	.
=214	=214	=214	=214
2r	8AA 8D 8F	8bb-	2r
.	8r	4aa	.
.	8AA 8E 8G	.	.
.	8r	([8cc#	.
=215	=215	=215	=215
2r	8D 8F	8cc#L]	2r
.	8r	8ddJ)	.
.	8d	4r	.
.	8r	.	.
*clefG2	*clefG2	*	*
=216	=216	=216	=216
8gL	4r	(8.ggL	2r
(8gJ	.	.	.
.	.	16eeJk	.
8eL	(4B-	[4ccc#)	.
8gJ	.	.	.
=217	=217	=217	=217
8eL	2A)	4ccc#]	2r
8gJ	.	.	.
8fL	.	(8.dddL	.
8dJ)	.	.	.
.	.	16aaJk)	.
=218	=218	=218	=218
8gL	4r	(8.ggL	2r
(8gJ	.	.	.
.	.	16eeJk	.
8eL	(4B-	[4ccc#)	.
8gJ	.	.	.
=219	=219	=219	=219
8eL	2A)	4ccc#]	2r
8gJ	.	.	.
8fL	.	(8.dddL	.
[8dJ) [8f	.	.	.
.	.	16eeeJk)	.
=220	=220	=220	=220
4.d;] 4.f;]	4.G#; 4.B;	4.fff;	2r
8r	8r	(8eee	.
=221	=221	=221	=221
2r	8r	8dddL	2r
*	*clefF4	*	*
.	8G 8B- 8e	8ccc#J)	.
.	8r	8r	.
.	(8F 8d	(8ddd	.
=222	=222	=222	=222
2r	8GL 8e	8bb-L)	2r
.	8A'J) 8d' 8f'	8aa'J	.
.	8r	8r	.
.	(8A 8e 8g	(8cc#	.
=223	=223	=223	=223
2r	4d') 4f'	8dd')	2r
.	.	8r	.
.	8D'	4r	.
.	8r	.	.
*clefF4	*	*	*
=224	=224	=224	=224
(16FLL	8D	(16fLL 16ff	2r
16G)	.	16g) 16gg	.
16A'	8r	16a' 16aa'	.
16B-'JJ	.	16b-'JJ 16bb-'	.
16A'LL	8C	16a'LL 16aa'	.
16G'	.	16g' 16gg'	.
16F'	8r	16f' 16ff'	.
16E'JJ	.	16e'JJ 16ee'	.
=225	=225	=225	=225
(16DLL	8BB-	(16dLL 16dd	2r
16E)	.	16e) 16ee	.
16F'	8r	16f' 16ff'	.
16G'JJ	.	16g'JJ 16gg'	.
16F'LL	8AA	16f'LL 16ff'	.
16E'	.	16e' 16ee'	.
16D'	8r	16d' 16dd'	.
16C'JJ	.	16c'JJ 16cc'	.
=226	=226	=226	=226
(16BB-LL	8GG	(16B-LL 16b-	2r
16C)	.	16c) 16cc	.
16BB-'	8r	16B-' 16b-'	.
16AA'JJ	.	16A'JJ 16a'	.
16GG'LL	8EE	16G'LL 16g'	.
16AA'	.	16A' 16a'	.
16BB-'	8r	16B-' 16b-'	.
16C'JJ	.	16c'JJ 16cc'	.
=227	=227	=227	=227
(16AALL	8FF	(16ALL 16a	2r
16BB-)	.	16B-) 16b-	.
16AA'	8r	16A' 16a'	.
16GG'JJ	.	16G'JJ 16g'	.
16FF'LL	4r	16F'LL 16f'	.
16GG'	.	16G' 16g'	.
16FF'	.	16F' 16f'	.
16EE'JJ	.	16E'JJ 16e'	.
=228	=228	=228	=228
16DD'LL	8DD	16D'LL 16d'	2r
16EE'	.	16E' 16e'	.
16FF'	8r	16F' 16f'	.
16GG'JJ	.	16G'JJ 16g'	.
16AA'LL	8FF	16A'LL 16a'	.
16BB-'	.	16B-' 16b-'	.
16BB'	8r	16B' 16b'	.
16C'JJ	.	16c'JJ 16cc'	.
=229	=229	=229	=229
16C#LL	8AA	16c#LL 16cc#	2r
16D	.	16d 16dd	.
16D#	8r	16d# 16dd#	.
16EJJ	.	16eJJ 16ee	.
16FLL	4r	16fLL 16ff	.
16F#	.	16f# 16ff#	.
16G	.	16g 16gg	.
16G#JJ	.	16g#JJ 16gg#	.
=230	=230	=230	=230
16ALL	8D	16aLL 16aa	2r
16B-	.	16b- 16bb-	.
16B	8r	16b 16bb	.
16cJJ	.	16ccJJ 16ccc	.
16c#LL	8F	16cc#LL 16ccc#	.
16d	.	16dd 16ddd	.
16e	8r	16ee 16eee	.
16fJJ	.	16ffJJ 16fff	.
=231	=231	=231	=231
8e'L	8A	8ee'L 8eee'	2r
8c#'J	8r	8cc#'J 8ccc#'	.
8A'	4r	8a' 8aa'	.
8r	.	8r	.
=232:|!|:	=232:|!|:	=232:|!|:	=232:|!|:
2r	16r	[4E [4G [4c#	2r
.	(16AAALL 16AA	.	.
.	16BBB- 16BB-	.	.
.	16GGG#JJ 16GG#	.	.
.	4AAA) 4AA	16ELL] 16G] 16c#]	.
.	.	(16g	.
.	.	16e	.
.	.	16c#JJ)	.
=233	=233	=233	=233
2r	16r	[4F [4A [4d	2r
.	(16AAALL 16AA	.	.
.	16BBB- 16BB-	.	.
.	16GGG#JJ 16GG#	.	.
.	[4AAA) [4AA	16FLL] 16A] 16d]	.
.	.	(16a	.
.	.	16f	.
.	.	16dJJ)	.
=234	=234	=234	=234
16r	16AAA] 16AA]	16c#LL	2r
16A'LL	16r	16a' 16aa'	.
16B'	8r	16b' 16bb'	.
16c#'JJ	.	16cc#'JJ 16ccc#'	.
(16dLL	8A	(16ddLL 16ddd	.
16c#)	.	16cc#) 16ccc#	.
16d'	8r	16dd' 16ddd'	.
16e'JJ	.	16ee'JJ 16eee'	.
=235	=235	=235	=235
8d	8D	16ffLL 16fff	2r
.	.	(16ff	.
8r	8r	16dd	.
.	.	16aJJ)	.
4r	16r	16fLL	.
.	(16ALL	(16a	.
.	16F	16f	.
.	16DJJ)	16dJJ)	.
=236	=236	=236	=236
2r	16r	[4E [4G [4c#	2r
.	(16AAALL 16AA	.	.
.	16BBB- 16BB-	.	.
.	16GGG#JJ 16GG#	.	.
.	4AAA) 4AA	16ELL] 16G] 16c#]	.
.	.	(16g	.
.	.	16e	.
.	.	16c#JJ)	.
=237	=237	=237	=237
2r	16r	[4F [4A [4d	2r
.	(16AAALL 16AA	.	.
.	16BBB- 16BB-	.	.
.	16GGG#JJ 16GG#	.	.
.	[4AAA) [4AA	16FLL] 16A] 16d]	.
.	.	(16a	.
.	.	16f	.
.	.	16dJJ)	.
=238	=238	=238	=238
16r	16AAA] 16AA]	16c#LL	2r
16A'LL	16r	16a' 16aa'	.
16B'	8r	16b' 16bb'	.
16cn'JJ	.	16cc'JJ 16ccc'	.
(16c#LL	8A	(16cc#LL 16ccc#	.
16d)	.	16dd) 16ddd	.
16e'	8r	16ee' 16eee'	.
16c#'JJ	.	16cc#'JJ 16ccc#'	.
=239	=239	=239	=239
8d	8D	16ddLL 16ddd	2r
.	.	(16dd	.
8r	16r	16a	.
.	(16D	16fJJ	.
4r	16AALL	8d)	.
.	16FFJ	.	.
.	8DDJ)	8r	.
*	*	*clefF4	*
=240:|!	=240:|!	=240:|!	=240:|!
*k[f#c#]	*k[f#c#]	*k[f#c#]	*k[f#c#]
2r	8DD'L	8A 8f#	2r
.	8AA'J	8r	.
.	8BB'L	8G 8e	.
.	8C#'J	8r	.
=241	=241	=241	=241
2r	8D'L	4F# [4d	2r
.	8DD'J	.	.
.	8EE'L	8.AL 8.d]	.
.	8FF#'J	.	.
.	.	16c#Jk	.
=242	=242	=242	=242
2r	8GGL	8G 8B	2r
.	8GGGJ	8r	.
.	8BBBL	8D 8G 8B	.
.	8CC#J	8r	.
=243	=243	=243	=243
2r	8DD	8D 8F# 8A	2r
.	8r	8r	.
.	4r	4r	.
*	*	*clefG2	*
=	=	=	=
*M3/8	*M3/8	*M3/8	*M3/8
4.r	8d	8a 8ff#	4.r
.	8r	8r	.
.	(8A# 8c#	(8g 8ee	.
=244	=244	=244	=244
4.r	8B) 8d	8f#) 8dd	4.r
.	8r	8r	.
.	(8F# 8A 8d#	(8cc 8ccc	.
=245	=245	=245	=245
4.r	8G) 8B 8e	8b) 8bb	4.r
.	8r	8r	.
*	*clefG2	*	*
.	(8e 8g	(8cc# 8bb	.
=246	=246	=246	=246
4.r	8f#) 8a	8dd) 8aa	4.r
.	8r	8r	.
.	8r	8r	.
*	*clefF4	*clefF4	*
=247	=247	=247	=247
*M2/4	*M2/4	*M2/4	*M2/4
2r	8DD'L	4D 4F#	2r
.	8D'J	.	.
.	8C#'L	(8.DL 8.F#	.
.	8BB'J	.	.
.	.	16GJk)	.
=248	=248	=248	=248
2r	8AA'L	4.C# 4.E 4.A	2r
.	8GG'J	.	.
.	8FF#'L	.	.
.	8EE'J	(16BLL	.
.	.	16c#JJ)	.
=249	=249	=249	=249
2r	8DDL 8D	8F#L 8d	2r
.	8CC#J 8C#	8F#J 8d	.
.	4BBB 4BB	8F#L 8d	.
.	.	8G#J 8d 8e	.
=250	=250	=250	=250
2r	2AAA; 2AA;	[4A; 4d; [4e;	2r
.	.	4A;] 4c#; 4e;]	.
*	*	*clefG2	*
=	=	=	=
*M3/8	*M3/8	*M3/8	*M3/8
4.r	8.d 8.f#	8.a 8.dd 8.ff#	4.r
.	16r	32r	.
.	.	32ff#LLK	.
.	8r	16.gg	.
.	.	32gg#JJk	.
=251	=251	=251	=251
4.r	8.G 8.A 8.c# 8.e	8.a 8.cc# 8.ee 8.aa	4.r
.	16r	32r	.
.	.	32bb-LLK	.
.	8r	16.bb	.
.	.	32ccc#JJk	.
=252	=252	=252	=252
4.r	8F#L 8A 8d 8f#	16dddLK	4.r
.	.	8ddd	.
*	*clefG2	*	*
.	8B 8f#	.	.
.	.	8ddd#	.
.	8BJ 8d 8e 8g#	.	.
.	.	[16eeeJk	.
=253	=253	=253	=253
4.r	4.A; 4.c#; 4.e; 4.a;	(32eeeLLL]	4.r
.	.	32ccc#	.
.	.	32bb	.
.	.	32aaJJJ)	.
.	.	4aa;	.
*	*clefF4	*clefF4	*clefF4
=254	=254	=254	=254
*M2/4	*M2/4	*M2/4	*M2/4
2r	8AAA'L	(4E	4C#
.	8BB'J	.	.
.	8AA'L	8F#L)	8r
.	8GG'J	8GJ	8E
=255	=255	=255	=255
2r	8FF#'L	4.A	8D'L
.	8EE'J	.	8E'J
.	8DD'	.	8F#'
.	8r	(16BLL	8r
.	.	16c#JJ)	.
=256	=256	=256	=256
2r	8AAA 8AA	8dL	8E 8G
.	8r	8c#J	8r
.	8AAA 8AA	8BL	8E 8G
.	8r	8c#J	8r
=257	=257	=257	=257
2r	8DD	(4d	8D 8F#
.	8r	.	8r
.	4r	8A)	4r
.	.	8r	.
*	*	*clefG2	*
=	=	=	=
*M3/8	*M3/8	*M3/8	*M3/8
4.r	8.G 8.A 8.c# 8.e	8.a 8.cc# 8.ee	4.r
.	16r	32r	.
.	.	32ff#LLK	.
.	8r	16.gg	.
.	.	32gg#JJk	.
=258	=258	=258	=258
4.r	8.F# 8.A 8.d 8.f#	8.a 8.dd 8.ff# 8.aa	4.r
.	16r	32r	.
.	.	32bbLLK	.
.	8r	16.ccc#	.
.	.	32dddJJk	.
*	*clefG2	*	*
=259	=259	=259	=259
4.r	8.A 8.e 8.g	8.eeL 8.gg 8.ddd	4.r
.	16r	(16ccc#L	.
.	8g 8a 8cc# 8ee	16bb	.
.	.	16ccc#JJ)	.
=260	=260	=260	=260
4.r	4f# 4a 4dd	[8dddL	4.r
.	.	32dddLL]	.
.	.	(64ccc#L	.
.	.	64ddd	.
.	.	64eee	.
.	.	64ddd	.
.	.	64ccc#	.
.	.	64bbJJ	.
.	8r	16aaJJ)	.
.	.	16r	.
*	*clefF4	*clefF4	*
=261	=261	=261	=261
*M2/4	*M2/4	*M2/4	*M2/4
2r	8AAA'L	(4E	4C#
.	8BB'J	.	.
.	8AA'L	8F#'L)	8r
.	8GG'J	8G'J	8E
=262	=262	=262	=262
2r	8FF#'L	4.A	8D'L
.	8EE'J	.	8E'J
.	8DD'	.	8F#'
.	8r	(16BLL	8r
.	.	16c#JJ)	.
=263	=263	=263	=263
2r	8AAA 8AA	8d'L	8E 8G
.	8r	8e'J	8r
.	8AAA 8AA	8d'L	8E 8G
.	8r	8c#'J	8r
=264	=264	=264	=264
2r	8DD	8d	8F# 8A
.	8r	8r	8r
.	4r	4r	4r
*	*	*clefG2	*
=	=	=	=
*M3/8	*M3/8	*M3/8	*M3/8
4.r	8.G 8.A 8.c# 8.e	8.a 8.cc# 8.ee	4.r
.	16r	32r	.
.	.	32ff#LLK	.
.	8r	16.gg	.
.	.	32gg#JJk	.
=265	=265	=265	=265
4.r	8.F# 8.A 8.d 8.f#	8.a 8.dd 8.ff# 8.aa	4.r
.	16r	32r	.
.	.	32bbLLK	.
.	8r	16.ccc#	.
.	.	32dddJJk	.
*	*clefG2	*	*
=266	=266	=266	=266
4.r	4.A; 4.c#; 4.e; 4.g;	16.dddLL	4.r
.	.	32ccc#JJk	.
.	.	4ccc#	.
=267	=267	=267	=267
4.r	([8dL 8a 8cc#	(8ggL 8eee	4.r
.	8dJ]) 8a 8dd	8ff#J) 8ddd	.
.	8r	8r	.
*	*clefF4	*	*
=268	=268	=268	=268
*M2/4	*M2/4	*M2/4	*M2/4
2r	24aLL	4r	2r
.	24f#	.	.
.	24aJ	.	.
.	24gL	.	.
.	24e	.	.
.	24gJJ	.	.
.	24f#LL	4dd 4ddd	.
.	24d	.	.
.	24f#J	.	.
.	24eL	.	.
.	24c#	.	.
.	24eJJ	.	.
=269	=269	=269	=269
2r	24dLL	4r	2r
.	24B	.	.
.	24dJ	.	.
.	24c#L	.	.
.	24A	.	.
.	24c#JJ	.	.
.	24BLL	4d) 4dd	.
.	24G	.	.
.	24BJ	.	.
.	24A#L	.	.
.	24F#	.	.
.	24A#JJ	.	.
=270	=270	=270	=270
2r	24BLL	4r	2r
.	24G	.	.
.	24BJ	.	.
.	24GL	.	.
.	24D	.	.
.	24GJJ	.	.
.	24DLL	4dd 4ddd	.
.	24BB	.	.
.	24DJ	.	.
.	24BBL	.	.
.	24GG	.	.
.	24BBJJ	.	.
=271	=271	=271	=271
2r	24AALL	4r	2r
.	24FF#	.	.
.	24AAJ	.	.
.	24GG#L	.	.
.	24EE#	.	.
.	24GG#JJ	.	.
.	24AALL	[4d) [4dd	.
.	24FF#	.	.
.	24AAJ	.	.
.	24GGL	.	.
.	24EE	.	.
.	24GGJJ	.	.
=272	=272	=272	=272
2r	8FF#L	24dLL] 24dd]	2r
.	.	24d	.
.	.	24eJ	.
.	(8AAJ	24f#L	.
.	.	24g	.
.	.	24aJJ	.
.	8FF#L	24bLL	.
.	.	24cc#	.
.	.	24ddJ	.
.	8DDJ)	24eeL	.
.	.	24ff	.
.	.	24ff#JJ	.
=273	=273	=273	=273
2r	8CC#L	24ggLL	2r
.	.	24a	.
.	.	24bJ	.
.	(8EJ	24cc#L	.
.	.	24dd	.
.	.	24eeJJ	.
.	8C#L	24ff#LL	.
.	.	24gg	.
.	.	24aaJ	.
.	8GGJ)	24bbL	.
.	.	24ccc	.
.	.	24ccc#JJ	.
=274	=274	=274	=274
2r	8FF#L	24dddLL	2r
.	.	24aa	.
.	.	24ggJ	.
.	(8AJ	24ff#L	.
.	.	24ee	.
.	.	24ddJJ	.
.	8F#L	24cc#LL	.
.	.	24dd	.
.	.	24aJ	.
.	8DJ)	24f#L	.
.	.	24e	.
.	.	24dJJ	.
=275	=275	=275	=275
2r	8AA	24c#LL	2r
.	.	24d	.
.	.	24eJ	.
.	8r	24f#L	.
.	.	24g#	.
.	.	24aJJ	.
.	4r	8A	.
.	.	8r	.
=276:|!	=276:|!	=276:|!	=276:|!
2r	24gLL	4r	2r
.	24e	.	.
.	24gJ	.	.
.	24f#L	.	.
.	24d#	.	.
.	24f#JJ	.	.
.	24gLL	4a 4aa	.
.	24e	.	.
.	24gJ	.	.
.	24eL	.	.
.	24c#	.	.
.	24eJJ	.	.
=277	=277	=277	=277
2r	24f#LL	4r	2r
.	24d	.	.
.	24f#J	.	.
.	24dL	.	.
.	24A	.	.
.	24dJJ	.	.
.	24ALL	8dd) 8ddd	.
.	24F#	.	.
.	24AJ	.	.
.	24F#L	8r	.
.	24D	.	.
.	24F#JJ	.	.
=278	=278	=278	=278
2r	24GLL	4r	2r
.	24E	.	.
.	24GJ	.	.
.	24F#L	.	.
.	24D#	.	.
.	24F#JJ	.	.
.	24GLL	4A 4a	.
.	24E	.	.
.	24GJ	.	.
.	24EL	.	.
.	24C#	.	.
.	24EJJ	.	.
=279	=279	=279	=279
2r	24F#LL	4r	2r
.	24D	.	.
.	24F#J	.	.
.	24DL	.	.
.	24AA	.	.
.	24DJJ	.	.
.	24AALL	8d) 8dd	.
.	24FF#	.	.
.	24AAJ	.	.
.	24FF#L	8r	.
.	24DD	.	.
.	24FF#JJ	.	.
=280	=280	=280	=280
2r	8CC#L	24r	2r
.	.	(24ALL	.
.	.	24BJ	.
.	(8EJ	32c#LL	.
.	.	32d	.
.	.	32e	.
.	.	32f#JJJ)	.
.	8C#L	24gLL	.
.	.	24a	.
.	.	24bJ	.
.	8GGJ)	24cc#L	.
.	.	24b	.
.	.	24aJJ	.
=281	=281	=281	=281
2r	8FF#L	(24ddLL	2r
.	.	24d	.
.	.	24eJ	.
.	(8AJ	32f#LL	.
.	.	32g	.
.	.	32a	.
.	.	32bJJJ)	.
.	8F#L	24cc#LL	.
.	.	24dd	.
.	.	24eeJ	.
.	8DJ)	24ff#L	.
.	.	24ee	.
.	.	24ddJJ	.
=282	=282	=282	=282
2r	(24C#LL	8gg	2r
.	24AA	.	.
.	24BBJ	.	.
.	32C#LL	8r	.
.	32D	.	.
.	32E	.	.
.	32F#JJJ)	.	.
.	24GLL	4gg 4aa 4eee	.
.	24A	.	.
.	24BJ	.	.
.	24c#L	.	.
.	24B	.	.
.	24AJJ	.	.
=283	=283	=283	=283
2r	24dLL	8ff# 8aa 8ddd	2r
.	24A	.	.
.	24F#J	.	.
.	24DL	8r	.
.	24AA	.	.
.	24FF#JJ	.	.
.	8DD	24r	.
.	.	24ddLL	.
.	.	24cc#J	.
.	8r	24ddL	.
.	.	24ee	.
.	.	24ff#JJ	.
=284	=284	=284	=284
2r	4r	24ggLL	2r
.	.	24ee	.
.	.	24ggJ	.
.	.	24ff#L	.
.	.	24dd#	.
.	.	24ff#JJ	.
.	4AA 4A	24ggLL	.
.	.	24ee	.
.	.	24ggJ	.
.	.	24eeL	.
.	.	24cc#	.
.	.	24eeJJ	.
=285	=285	=285	=285
2r	4r	24ff#LL	2r
.	.	24dd	.
.	.	24ff#J	.
.	.	24ddL	.
.	.	24a	.
.	.	24ddJJ	.
.	8D) 8d	24aLL	.
.	.	24f#	.
.	.	24aJ	.
.	8r	24f#L	.
.	.	24d	.
.	.	24f#JJ	.
=286	=286	=286	=286
2r	4r	24gLL	2r
.	.	24e	.
.	.	24gJ	.
.	.	24f#L	.
.	.	24d#	.
.	.	24f#JJ	.
.	4AAA 4AA	24gLL	.
.	.	24e	.
.	.	24gJ	.
.	.	24eL	.
.	.	24c#	.
.	.	24eJJ	.
=287	=287	=287	=287
2r	4r	24f#LL	2r
.	.	24d	.
.	.	24f#J	.
.	.	24dL	.
.	.	24A	.
.	.	24dJJ	.
.	8DD) 8D	24ALL	.
.	.	24F#	.
.	.	24AJ	.
.	8r	24F#L	.
.	.	24D	.
.	.	24F#JJ	.
=288	=288	=288	=288
2r	24r	8C#L 8G	2r
.	(24AAALL	.	.
.	24BBBJ	.	.
.	32CC#LL	(8eeJ	.
.	32DD	.	.
.	32EE	.	.
.	32FF#JJJ)	.	.
.	24GGLL	8cc#L	.
.	24AA	.	.
.	24BBJ	.	.
.	24C#L	8gJ)	.
.	24BB	.	.
.	24AAJJ	.	.
=289	=289	=289	=289
2r	(24DLL	8f#L	2r
.	24DD	.	.
.	24EEJ	.	.
.	32FF#LL	(8aaJ	.
.	32GG	.	.
.	32AA	.	.
.	32BBJJJ)	.	.
.	24C#LL	8ff#L	.
.	24D	.	.
.	24EJ	.	.
.	24F#L	8ddJ)	.
.	24E	.	.
.	24DJJ	.	.
=290	=290	=290	=290
2r	8G	(24cc#LL	2r
.	.	24a	.
.	.	24bJ	.
.	8r	32cc#LL	.
.	.	32dd	.
.	.	32ee	.
.	.	32ff#JJJ)	.
.	4AA 4E 4G	24ggLL	.
.	.	24aa	.
.	.	24bbJ	.
.	.	24ccc#L	.
.	.	24bb	.
.	.	24aaJJ	.
=291	=291	=291	=291
2r	8D 8F#	24dddLL	2r
.	.	24aa	.
.	.	24ff#J	.
.	8r	24ddL	.
.	.	24a	.
.	.	24f#JJ	.
.	4r	8d	.
.	.	8r	.
=292	=292	=292	=292
2r	8r	(16ALL	2r
.	.	16F#	.
.	4DD 4D	16f#	.
.	.	16dJJ	.
.	.	16GLL	.
.	.	16g	.
.	[8AA [8A	16e	.
.	.	16c#JJ)	.
=293	=293	=293	=293
2r	8AA] 8A]	(16ff#LL	2r
.	.	16dd	.
.	4BB 4B	16ddd	.
.	.	16ff#JJ	.
.	.	16ddLL	.
.	.	16ccc#	.
.	[8FF# [8F#	16aa	.
.	.	16ddJJ)	.
=294	=294	=294	=294
2r	8FF#] 8F#]	(16aLL	2r
.	.	16d	.
.	4GG 4G	16B	.
.	.	16bJJ	.
.	.	16gLL	.
.	.	16d	.
.	[8BB [8B	16dd	.
.	.	16bJJ)	.
=295	=295	=295	=295
2r	8BB] 8B]	(16ggLL	2r
.	.	16dd	.
.	4D 4d	16a	.
.	.	16aaJJ	.
.	.	16ff#LL	.
.	.	16dd	.
.	8DD 8D	16ddd	.
.	.	16aaJJ)	.
=296	=296	=296	=296
2r	8r	24eLL	2r
.	.	24d	.
.	.	24f#J	.
.	4AA 4A	8A'J	.
.	.	24eeLL	.
.	.	24dd	.
.	.	24ff#J	.
.	[8DD [8D	8a'J	.
=297	=297	=297	=297
2r	8DD] 8D]	24f#LL	2r
.	.	24e	.
.	.	24gJ	.
.	4CC# 4C#	8A'J	.
.	.	24ff#LL	.
.	.	24ee	.
.	.	24ggJ	.
.	[8AA [8A	8a'J	.
=298	=298	=298	=298
2r	8AA] 8A]	24ggLL	2r
.	.	24ff#	.
.	.	24aaJ	.
.	4DD 4D	8dd'J	.
.	.	24gLL	.
.	.	24f#	.
.	.	24aJ	.
.	[8FF# [8F#	8d'J	.
=299	=299	=299	=299
2r	8FF#L] 8F#]	24dLL	2r
.	.	24c#	.
.	.	24eJ	.
*	*	*clefF4	*
.	8AAJ	24AL	.
.	.	24E	.
.	.	24C#JJ	.
.	8AAA	4r	.
.	8r	.	.
*	*	*clefG2	*
=300:|!|:	=300:|!|:	=300:|!|:	=300:|!|:
2r	8r	(16c#LL	2r
.	.	16e	.
.	4AAA 4AA	16A	.
.	.	16c#JJ	.
.	.	16eLL	.
.	.	16c#	.
.	[8GG [8G	16b	.
.	.	16aJJ)	.
=301	=301	=301	=301
2r	8GG] 8G]	(16ddLL	2r
.	.	16ff#	.
.	4FF# 4F#	16a	.
.	.	16ddJJ	.
.	.	16ff#LL	.
.	.	16dd	.
.	[8AAA [8AA	16bb	.
.	.	16aaJJ)	.
=302	=302	=302	=302
2r	8AAA] 8AA]	(16gLL	2r
.	.	16e	.
.	4CC# 4C#	16c#	.
.	.	16AJJ	.
.	.	16gLL	.
.	.	16e	.
.	[8AAA [8AA	16b	.
.	.	16aJJ)	.
=303	=303	=303	=303
2r	8AAA] 8AA]	(16dddLL	2r
.	.	16aa	.
.	4DD 4D	16ff#	.
.	.	16ddJJ	.
.	.	16aaLL	.
.	.	16ff#	.
.	[8AAA [8AA	16eee	.
.	.	16dddJJ)	.
=304	=304	=304	=304
2r	8AAA] 8AA]	24ff#LL	2r
.	.	24ee	.
.	.	24ggJ	.
.	4EE 4E	8cc#'J	.
.	.	24f#LL	.
.	.	24e	.
.	.	24gJ	.
.	[8GG [8G	8c#'J	.
=305	=305	=305	=305
2r	8GG] 8G]	24bbLL	2r
.	.	24aa	.
.	.	24dddJ	.
.	4FF# 4F#	8ff#'J	.
.	.	24gLL	.
.	.	24f#	.
.	.	24bJ	.
.	[8AA [8A	8d#'J	.
=306	=306	=306	=306
2r	8AA] 8A]	24ff#LL	2r
.	.	24ee	.
.	.	24ggJ	.
.	4GG 4G	8b'J	.
.	.	24f#LL	.
.	.	24e	.
.	.	24gJ	.
.	[8AA [8A	8c#'J	.
=307	=307	=307	=307
2r	8AAL] 8A]	24dLL	2r
.	.	24f#	.
.	.	24aJ	.
.	8DJ	24ddL	.
.	.	24ff#	.
.	.	24aaJJ	.
.	8DD	8ddd	.
.	8r	8r	.
*	*	*	*clefG2
=308:|!	=308:|!	=308:|!	=308:|!
4A	[2D	4ff#	4a
4c#	.	4ee	4g
=309	=309	=309	=309
4d	2D]	4.dd	4f#
4F# 4A 4c	.	.	4d# 4a
.	.	8cc	.
=310	=310	=310	=310
4G 4B	[2D	4b	4e 4g
4E 4G	.	(4b	(4c# 4g
=311	=311	=311	=311
4F# 4A	2D]	4.a)	4d)
4A	.	.	4r
.	.	8g	.
=312	=312	=312	=312
4A 4c	[2D	4d# 4f#	2r
(4A 4c	.	(4d# 4f#	.
=313	=313	=313	=313
4G) 4B	4D]	4e) 4g	2r
(4E 4B-	[4D	(4c# 4g	.
=314	=314	=314	=314
4F#) 4A	4D]	4d) 4f#	2r
4r	(4DD 4D	(4G# 4B 4f#	.
=315	=315	=315	=315
2r	2AAA;) 2AA;	2A;) 2c#; 2e;	2r
=316:|!|:	=316:|!|:	=316:|!|:	=316:|!|:
4r	[2AA	8c# 8e	2r
.	.	8r	.
(4G^	.	(4c# 4b	.
=317	=317	=317	=317
8F#)	2AA]	8d) 8a	2r
8r	.	8r	.
(4D	.	(4f# 4dd	.
=318	=318	=318	=318
8E)	[2AA	8g) 8cc#	2r
8r	.	8r	.
(4G	.	(4cc# 4bb-	.
=319	=319	=319	=319
8F#)	2AA]	8dd) 8aa	2r
8r	.	8r	.
(4D	.	(4ff# 4ddd	.
=320	=320	=320	=320
8E)	[2AA	8gg) 8ccc#	2r
8r	.	8r	.
*	*	*clefF4	*
(4G	.	(4B- 4c#	.
=321	=321	=321	=321
8F#)	8AA]	8A) 8d	2r
8r	8r	8r	.
4r;	4r	4r	.
=322	=322	=322	=322
2r	4AAA 4AA	(4D' 4F#' 4A'	2r
.	4AAA 4AA	4C#') 4E' 4G' 4A'	.
=323	=323	=323	=323
2r	2DD; 2AA;	2D; 2F#; 2A;	2r
*	*	*clefG2	*
=324:|!	=324:|!	=324:|!	=324:|!
2r	12r	(4a 4ff#	2r
.	(12DDL	.	.
.	12FF#'J)	.	.
.	12r	4g 4ee	.
.	(12AAL	.	.
.	12C#'J)	.	.
=325	=325	=325	=325
2r	12r	8f#') 8dd'	2r
.	(12DL	.	.
.	.	8r	.
.	12F#J)	.	.
.	8A'	12r	.
.	.	(12dL	.
.	8r	.	.
.	.	12cc'J)	.
=326	=326	=326	=326
2r	8G' 8d'	12r	2r
.	.	(12bL	.
.	8r	.	.
.	.	12dd'J)	.
.	8G' 8B' 8d'	12r	.
.	.	(12ggL	.
.	8r	.	.
.	.	12bb'J)	.
=327	=327	=327	=327
2r	8D'L 8d'	12r	2r
.	.	(12ff#L	.
.	8D'J 8d'	.	.
.	.	12aa'J)	.
.	4r	8a'L 8aa'	.
.	.	8a'J 8aa'	.
=328	=328	=328	=328
2r	12r	(4d 4f#	2A
.	(12DDL	.	.
.	12AA'J)	.	.
.	12r	4f# 4a	.
.	(12DL	.	.
.	12AA'J)	.	.
=329	=329	=329	=329
2r	12r	4e) 4g	4A
.	(12C#L	.	.
.	12AA'J)	.	.
.	8CC#' 8AA'	12r	4r
.	.	(12aL	.
.	8r	.	.
.	.	12gg'J)	.
=330	=330	=330	=330
2r	8DD' 8AA'	12r	2r
.	.	(12ff#L	.
.	8r	.	.
.	.	12dd'J)	.
.	8FF#' 8D'	12r	.
.	.	(12aaL	.
.	8r	.	.
.	.	12ff#'J)	.
=331	=331	=331	=331
2r	8AA'L 8A'	12r	2r
.	.	(12eeL	.
.	8AA'J 8A'	.	.
.	.	12cc#'J)	.
.	4r	8a'L 8aa'	.
.	.	8a'J 8aa'	.
=332:|!|:	=332:|!|:	=332:|!	=332:|!|:
2r	12r	(4c# 4e	2A
.	(12AAL	.	.
.	12C#'J)	.	.
.	12r	4e 4a	.
.	(12GGL	.	.
.	12C#'J)	.	.
=333	=333	=333	=333
2r	12r	4d) 4f#	4A
.	(12FF#L	.	.
.	12D'J)	.	.
.	8DD' 8AA'	12r	4r
.	.	(12ff#L	.
.	8r	.	.
.	.	12dd'J)	.
=334	=334	=334	=334
2r	8CC#' 8AA'	12r	2r
.	.	(12ggL	.
.	8r	.	.
.	.	12ee'J)	.
.	8AAA' 8AA'	12r	.
.	.	(12gL	.
.	8r	.	.
.	.	12e'J)	.
=335	=335	=335	=335
2r	8DD'L 8D'	12r	2r
.	.	(12f#L	.
.	8DD'J 8D'	.	.
.	.	12d'J)	.
.	4r	8a'L 8aa'	.
.	.	8a'J 8aa'	.
=336	=336	=336	=336
2r	12r	(4c# 4e	2A
.	(12AAL	.	.
.	12C#'J)	.	.
.	12r	4e 4a	.
.	(12GGL	.	.
.	12C#'J)	.	.
=337	=337	=337	=337
2r	12r	4d) 4f#	4A
.	(12FF#L	.	.
.	12D'J)	.	.
.	8DD' 8AA'	12r	4r
.	.	(12ff#L	.
.	8r	.	.
.	.	12dd'J)	.
=338	=338	=338	=338
2r	8CC#' 8AA'	12r	2r
.	.	(12ggL	.
.	8r	.	.
.	.	12ee'J)	.
.	8AAA' 8AA'	12r	.
.	.	(12gL	.
.	8r	.	.
.	.	12e'J)	.
=339	=339	=339	=339
2r	8DD'L 8D'	12r	2r
.	.	(12dL	.
.	8DD'J 8D'	.	.
.	.	12f#'J)	.
.	4r	8dd'L 8ddd'	.
.	.	8dd'J 8ddd'	.
=:|!	=:|!	=:|!	=:|!
*M6/8	*M6/8	*M6/8	*M6/8
2.r	4DD 4D	(8f#L 8ff#	2.r
.	.	8g 8gg	.
.	4r	8g#J 8gg#	.
.	.	8aL) 8aa	.
.	8r	8f#' 8ff#'	.
.	8AAA 8AA	8e'J 8ee'	.
=340	=340	=340	=340
2.r	(8BBBL 8BB	[4.d [4.dd	2.r
.	8CC 8C	.	.
.	8CC#J 8C#	.	.
.	8DDL) 8D	4d] 4dd]	.
.	8BBB' 8BB'	.	.
.	8AAA'J 8AA'	([8dd [8ddd	.
=341	=341	=341	=341
2.r	[4.GGG [4.GG	8ddL] 8ddd]	2.r
.	.	8cc# 8ccc#	.
.	.	8ddJ 8ddd	.
.	4GGG] 4GG]	8eeL) 8eee	.
.	.	8dd' 8ddd'	.
.	([8GG [8G	8b'J 8bb'	.
=342	=342	=342	=342
2.r	8GGL] 8G]	[4.a [4.aa	2.r
.	8FF# 8F#	.	.
.	8GGJ 8G	.	.
.	8AAL) 8A	4a] 4aa]	.
.	8GG' 8G'	.	.
.	8EE'J 8E'	([8a [8aa	.
=343	=343	=343	=343
2.r	[4.DD [4.D	8aL] 8aa]	2.r
.	.	8g 8gg	.
.	.	8f#J 8ff#	.
.	4DD] 4D]	8eL) 8ee	.
.	.	8d' 8dd'	.
.	([8DD [8D	8f#'J 8ff#'	.
=344	=344	=344	=344
2.r	8DDL] 8D]	[4.g [4.gg	2.r
.	8CC# 8C#	.	.
.	8BBBJ 8BB	.	.
.	8AAAL) 8AA	4g] 4gg]	.
.	8BBB' 8BB'	.	.
.	8GGG'J 8GG'	8e 8ee	.
=345	=345	=345	=345
2.r	[4.FFF# [4.FF#	(8aL 8aa	2.r
.	.	8b 8bb	.
.	.	8cc#J 8ccc#	.
.	4FFF#] 4FF#]	8ddL) 8ddd	.
.	.	8ee' 8eee'	.
.	8GGG# 8GG#	8dd'J 8ddd'	.
=346	=346	=346	=346
2.r	(8AAAL 8AA	(8cc#L 8ccc#	2.r
.	8BBB 8BB	8b 8bb	.
.	8CC#J 8C#	8aJ) 8aa	.
.	8DDL) 8D	4r	.
.	8EE' 8E'	.	.
.	8CC#'J 8C#'	([8A [8a	.
=347:|!|:	=347:|!|:	=347:|!|:	=347:|!|:
2.r	([4.AAA [4.AA	8AL] 8a]	2.r
.	.	8G) 8g	.
.	.	8E'J 8e'	.
.	8AAAL] 8AA]	([4.g [4.gg	.
.	8DD) 8D	.	.
.	8CC#'J 8C#'	.	.
=348	=348	=348	=348
2.r	([4.DD [4.D	8gL] 8gg]	2.r
.	.	8f#) 8ff#	.
.	.	8d'J 8dd'	.
.	8DDL] 8D]	([4.dd [4.ddd	.
.	8GG) 8G	.	.
.	8FF#'J 8F#'	.	.
=349	=349	=349	=349
2.r	([4.GG [4.G	8ddL] 8ddd]	2.r
.	.	8dd#) 8ddd#	.
.	.	8ee'J 8eee'	.
.	8GGL] 8G]	([4.a [4.aa	.
.	8EE) 8E	.	.
.	8EE#'J 8E#'	.	.
=350	=350	=350	=350
2.r	8FF#' 8F#'	8aL] 8aa]	2.r
.	8r	8f#) 8ff#	.
.	8CC# 8C#	8e'J 8ee'	.
.	8DD 8D	(8dL 8dd	.
.	8r	8c# 8cc#	.
.	8GGG# 8GG#	8BJ) 8b	.
=351	=351	=351	=351
2.r	(8AAAL 8AA	([4.A [4.a	2.r
.	8GG)	.	.
.	8EE'J	.	.
.	([4.GG [4.G	8AL] 8a]	.
.	.	8d) 8dd	.
.	.	8c#'J 8cc#'	.
=352	=352	=352	=352
2.r	8GGL] 8G]	([4.d [4.dd	2.r
.	8FF#) 8F#	.	.
.	8DD'J 8D'	.	.
.	([4.D [4.d	8dL] 8dd]	.
.	.	8g) 8gg	.
.	.	8f#'J 8ff#'	.
=353	=353	=353	=353
2.r	8DL] 8d]	([4.g [4.gg	2.r
.	8D# 8d#	.	.
.	8E'J) 8e'	.	.
.	[4.AA [4.A	8gL] 8gg]	.
.	.	8g#) 8gg#	.
.	.	8a'J 8aa'	.
=354	=354	=354	=354
2.r	8AAL] 8A]	4d 4dd	2.r
.	8FF#' 8F#'	.	.
.	8EE'J 8E'	4r	.
.	4DD' 4D'	.	.
.	.	8r	.
.	8r	8r	.
=355:|!	=355:|!	=355:|!	=355:|!
*M2/4	*M2/4	*M2/4	*M2/4
2r	8d' 8f#'	2r	2r
.	8r	.	.
.	8A' 8e'	.	.
.	8r	.	.
=356	=356	=356	=356
2r	8F#' 8d'	24r	2r
.	.	24aaLL	.
.	.	24bb-J	.
.	8r	24bbL	.
.	.	24ccc	.
.	.	24ccc#JJ	.
.	8r	8ddd	.
.	16r	8r	.
.	16A' 16c#'	.	.
=357	=357	=357	=357
2r	8G' 8B'	2r	2r
.	8r	.	.
.	8G' 8d'	.	.
.	8r	.	.
=358	=358	=358	=358
2r	8F#' 8A'	24r	2r
.	.	24dddLL	.
.	.	24ccc#J	.
.	8r	24cccL	.
.	.	24bb	.
.	.	24bb-JJ	.
.	8r	8aa	.
.	16r	8r	.
.	16E' 16G'	.	.
=359	=359	=359	=359
2r	8D' 8F#'	2r	2r
.	8r	.	.
.	8d' 8f#'	.	.
.	8r	.	.
=360	=360	=360	=360
2r	8c#' 8g'	24r	2r
.	.	24eeLL	.
.	.	24ffJ	.
.	8r	24ff#L	.
.	.	24gg	.
.	.	24gg#JJ	.
.	8r	8aa	.
.	16r	8r	.
.	16C#' 16G'	.	.
=361	=361	=361	=361
2r	8D' 8F#'	2r	2r
.	8r	.	.
.	8d' 8f#'	.	.
.	8r	.	.
=362	=362	=362	=362
2r	8A' 8e'	24r	2r
.	.	24aaLL	.
.	.	24gg#J	.
.	8r	24ggL	.
.	.	24ff#	.
.	.	24ffJJ	.
.	4r	8ee	.
.	.	8r	.
=363:|!|:	=363:|!|:	=363:|!|:	=363:|!|:
2r	2r	8ee' 8gg'	2r
.	.	8r	.
.	.	8a' 8ee'	.
.	.	8r	.
=364	=364	=364	=364
2r	24r	8dd' 8ff#'	2r
.	24dLL	.	.
.	24c#J	.	.
.	24cL	8r	.
.	24B	.	.
.	24B-JJ	.	.
.	8A	4r	.
.	8r	.	.
=365	=365	=365	=365
2r	2r	8e' 8g'	2r
.	.	8r	.
.	.	8A' 8e'	.
.	.	8r	.
=366	=366	=366	=366
2r	24r	8f#' 8a'	2r
.	24AALL	.	.
.	24BB-J	.	.
.	24BBL	8r	.
.	24C	.	.
.	24C#JJ	.	.
.	8D	4r	.
.	8r	.	.
*	*	*clefF4	*
=367	=367	=367	=367
2r	2r	8E' 8G'	2r
.	.	8r	.
.	.	8AA' 8E'	.
.	.	8r	.
=368	=368	=368	=368
2r	24r	8D' 8F#'	2r
.	24DDLL	.	.
.	24CC#J	.	.
.	24CCL	8r	.
.	24BBB	.	.
.	24BBB-JJ	.	.
.	8AAA	4r	.
.	8r	.	.
=369	=369	=369	=369
2r	8EE' 8GG'	2r	2r
.	8r	.	.
.	8AAA' 8EE'	.	.
.	8r	.	.
*	*	*clefG2	*
=370	=370	=370	=370
2r	8DD' 8FF#'	24r	2r
.	.	24aaLL	.
.	.	24bb-J	.
.	8r	24bbL	.
.	.	24ccc	.
.	.	24ccc#JJ	.
.	4r	8ddd	.
.	.	8r	.
=:|!	=:|!	=:|!	=:|!
*M1/16	*M1/16	*M1/16	*M1/16
16r	16r	16ff#	16f#
=371	=371	=371	=371
*M2/4	*M2/4	*M2/4	*M2/4
4r	[2FF# [2F#	4ff#	[2f#
4AA#	.	4cc# 4ee	.
=372	=372	=372	=372
4BB	2FF#_ 2F#_	4b 4dd	4f#]
4C#	.	4a# 4cc#	4e
=373	=373	=373	=373
4D	4FF#_ 4F#]	4b	4d 4f#
4E#	4FF#]	8bL	4d 4g#
.	.	8cc#J	.
=374	=374	=374	=374
2r	2FF# 2F#	[4c# [4f# [4a#	[4c#
.	.	8.c#L] 8.f#] 8.a#]	8.c#L]
.	.	16aJk	16AJk 16d
=375	=375	=375	=375
2r	(2FF# [2AA 2F#	[2a	4A 4d
.	.	.	16c#LL
.	.	.	16d
.	.	.	16e
.	.	.	16f#JJ
=376	=376	=376	=376
2r	(2EE) 2AA_ 2E	4a]	2g
.	.	16g#LL	.
.	.	16a	.
.	.	16b	.
.	.	16cc#JJ	.
=377	=377	=377	=377
2r	4DD) 4AA] 4D	8f# 8dd	2r
.	.	8r	.
.	(16DDLL	8A 8d 8f#	.
.	16EE	.	.
.	16FF#	8r	.
.	16GGJJ)	.	.
=378	=378	=378	=378
2r	8AA'	8A' 8c#' 8e'	2r
.	8r	8r	.
.	8AAA'	4r	.
.	8r	.	.
=379:|!|:	=379:|!|:	=379:|!|:	=379:|!|:
2r	2r	(4a	2r
.	.	[4gg)	.
*	*	*	*clefF4
=380	=380	=380	=380
2r	4r	(16ggLL]	(4D
.	.	16ff#	.
.	.	16ee	.
.	.	16ddJJ)	.
.	4r	4dd	[4d)
=381	=381	=381	=381
2r	(4AA	2r	(16dLL]
.	.	.	16c#
.	.	.	16B
.	.	.	16AJJ)
.	[4G)	.	4A
=382	=382	=382	=382
4FFF#	(16GLL]	4d	2r
.	16F#	.	.
.	16E	.	.
.	16DJJ)	.	.
4r	8DL	[4dd	.
.	(8FF#J	.	.
=383	=383	=383	=383
2r	8EEL)	(16ddLL]	4BB
.	.	16cc#	.
.	8C#J	16b	.
.	.	16aJJ)	.
.	(4CC#	[4gg	[4C#
=384	=384	=384	=384
2r	4DD)	(16ggLL]	8C#]
.	.	16ff#	.
.	.	16ee	8r
.	.	16ddJJ)	.
.	[4D	(16ddLL	8AA
.	.	16cc#	.
.	.	16b	8r
.	.	16aJJ)	.
=385	=385	=385	=385
2r	(16DLL]	[4a	4EE 4GG
.	16C#	.	.
.	16BB	.	.
.	16AAJJ)	.	.
.	[4AA	(16aLL]	4r
.	.	16g	.
.	.	16f#	.
.	.	16eJJ)	.
=386	=386	=386	=386
2r	(16AALL]	4d	2r
.	16GG	.	.
.	16FF#	.	.
.	16EEJJ)	.	.
.	4DD'	4r	.
=387:|!	=387:|!	=387:|!	=387:|!
2r	(16DLL	4f# 4ff#	2r
.	16d	.	.
.	16F#	.	.
.	16DJJ	.	.
.	16c#LL	8.aL 8.aa	.
.	16E	.	.
.	16C#	.	.
.	16c#JJ)	16aJk 16aa	.
=388	=388	=388	=388
2r	(16BBLL	(4d 4dd	2r
.	16B	.	.
.	16D	.	.
.	16BBJJ	.	.
.	16ALL	4f#) 4ff#	.
.	16C#	.	.
.	16AA	.	.
.	16AJJ)	.	.
=389	=389	=389	=389
2r	(16GGLL	4B 4b	2r
.	16G	.	.
.	16BB	.	.
.	16GGJJ	.	.
.	16GLL	8.c#L 8.cc#	.
.	16BB-	.	.
.	16GG	.	.
.	16GJJ)	16c#Jk 16cc#	.
=390	=390	=390	=390
2r	(16FF#LL	(4d 4dd	2r
.	16F#	.	.
.	16AA	.	.
.	16GGJJ	.	.
.	16FFLL	8A) 8a	.
.	16F	.	.
.	16AA	8r	.
.	16FFJJ)	.	.
=391	=391	=391	=391
2r	(16FF#LL	4A 4a	2r
.	16F#	.	.
.	16AA	.	.
.	16FF#JJ	.	.
.	16DLL	8.AL 8.a	.
.	16FF#	.	.
.	16DD	.	.
.	16DJJ)	16AJk 16a	.
=392	=392	=392	=392
2r	(16CC#LL	2A 2a	2r
.	16C#	.	.
.	16EE	.	.
.	16CC#JJ	.	.
.	16DLL	.	.
.	16FF#	.	.
.	16DD	.	.
.	16DJJ)	.	.
=393	=393	=393	=393
2r	(16BBBLL	4d 4dd	2r
.	16BB	.	.
.	16DD	.	.
.	16BBBJJ	.	.
.	16BB-LL	8.dL 8.dd	.
.	16DD	.	.
.	16BBB-	.	.
.	16BB-JJ)	16dJk 16dd	.
=394	=394	=394	=394
2r	(16AAALL	8a 8aa	2r
.	16CC#	.	.
.	16EE	8r	.
.	16AAJJ)	.	.
.	8AAA	4r	.
.	8r	.	.
=395:|!|:	=395:|!|:	=395:|!|:	=395:|!|:
2r	(16AALL	4e 4ee	2r
.	16A	.	.
.	16C#	.	.
.	16AAJJ	.	.
.	16GLL	8.eL 8.ee	.
.	16C#	.	.
.	16GG	.	.
.	16GJJ)	16eJk 16ee	.
=396	=396	=396	=396
2r	(16FF#LL	(4a 4aa	2r
.	16F#	.	.
.	16AA	.	.
.	16FF#JJ	.	.
.	16ELL	4g 4gg	.
.	16AA	.	.
.	16EE	.	.
.	16EJJ)	.	.
=397	=397	=397	=397
2r	(16DD#LL	4f# 4ff#	2r
.	16D#	.	.
.	16AA	.	.
.	16DD#JJ	.	.
.	16ELL	4g) 4gg	.
.	16AA	.	.
.	16EE	.	.
.	16EJJ)	.	.
=398	=398	=398	=398
2r	(16CC#LL	8.aL 8.aa	2r
.	16C#	.	.
.	16AA	.	.
.	16CC#JJ	16gJk 16gg	.
.	16DLL	4f# 4ff#	.
.	16AA	.	.
.	16DD	.	.
.	16DJJ)	.	.
=399	=399	=399	=399
2r	(16AALL	4e 4ee	2r
.	16A	.	.
.	16C#	.	.
.	16AAJJ	.	.
.	16GLL	8.eL 8.ee	.
.	16C#	.	.
.	16GG	.	.
.	16GJJ)	16eJk 16ee	.
=400	=400	=400	=400
2r	(16FF#LL	(4a 4aa	2r
.	16F#	.	.
.	16AA	.	.
.	16FF#JJ	.	.
.	16D#LL	4f# 4ff#	.
.	16AA	.	.
.	16DD#	.	.
.	16D#JJ)	.	.
=401	=401	=401	=401
2r	(16EELL	4g) 4gg	2r
.	16E	.	.
.	16AA	.	.
.	16EEJJ	.	.
.	16GLL	8.cc#L 8.ccc#	.
.	16E	.	.
.	16AA	.	.
.	16GJJ)	16cc#Jk 16ccc#	.
=402	=402	=402	=402
2r	(16F#LL	4dd 4ddd	2r
.	16D	.	.
.	16AA	.	.
.	16FF#JJ)	.	.
.	8DD	4r	.
.	8r	.	.
=403:|!	=403:|!	=403:|!	=403:|!
*M3/4	*M3/4	*M3/4	*M3/4
8DL	2DD	4F# 4f#	2.r
8AAJ	.	.	.
8DL	.	4F# 4A 4f#	.
8AAJ	.	.	.
8C#L	4DD	4G 4A 4e	.
8AAJ	.	.	.
=404	=404	=404	=404
8DL	4DD	4.F# 4.A 4.d	2.r
8AAJ	.	.	.
4r	8FF#L	.	.
.	8DDJ	8D 8d	.
4r	8CCL 8EE	8DL 8d	.
.	8AAAJ 8DD 8AA	8DJ 8F# 8c 8d	.
=405	=405	=405	=405
2.r	8..GGGL 8..DD 8..GG	8..DL 8..G 8..B 8..d	2.r
.	32GGJkk 32D 32G	32dJkk 32b	.
.	8.GG 8.D 8.G	8.d 8.b 8.dd	.
.	16r	32r	.
.	.	32gg' 32bb'	.
.	8r	16ddd'	.
.	.	16r	.
.	16.r	16.r	.
.	32GGG 32DD 32GG	32D 32B 32d	.
=406	=406	=406	=406
2.r	8..FFF#L 8..DD 8..FF#	8..DL 8..A 8..d	2.r
.	32FF#Jkk 32AA 32F#	32dJkk 32a	.
.	8.FF# 8.AA 8.F#	8.d 8.a 8.dd	.
.	16r	32r	.
.	.	32aa'	.
.	8r	16ddd'	.
.	.	16r	.
.	16.r	16.r	.
.	32AA	32A	.
=407	=407	=407	=407
8r	4.AA	4.A	2.r
(16.DDLL 16.F#	.	.	.
32EEJJk 32E	.	.	.
8FF#) 8D	.	.	.
8r	8AA	(16ALL	.
.	.	16f#'JJ)	.
4r	8AAL	(16f#LL	.
.	.	16d')	.
.	8DDJ 8AA 8D	(16F# 16A 16d	.
.	.	16g'JJ)	.
=408	=408	=408	=408
8r	8EE 8AA 8C#	8G 8A 8g	2r
(16.EELL 16.G	8r	4A	.
32FF#JJk) 32F#	.	.	.
8GG 8AA 8E	8r	.	.
8r	(8AA'	(16ALL	.
.	.	16gJJ)	.
4r	8AA'L)	(16gLL	8r
.	.	16e)	.
.	8GGJ 8AA 8C#	(16e	[8CC#
.	.	16aJJ)	.
=409	=409	=409	=409
2.r	8FF#L 8AA 8D	(16aLL	8CC#]
.	.	16f#)	.
.	8AAJ 8BB 8D#	(16f#	4DD
.	.	16bJJ)	.
.	8GGL 8BB 8E	(16bLL	.
.	.	16e)	.
.	8GGJ 8AA 8E	(16e	8EE
.	.	16cc#JJ)	.
.	8FF# 8AA 8D	(16f#LL	8FF#
.	.	16ddJJ)	.
.	8r	8r	8r
=410	=410	=410	=410
8r	8r	8r	8r
8F#L	[4AA	[4a	8FF#L
8E	.	.	8EE
8D	8.AA]	8a]	8AA
16C#Jk	.	(48aLLL	16GGJk
.	.	48g	.
.	.	48f#JJ	.
16r	16r	48gLL	16r
.	.	48a	.
.	.	48bJJ	.
8r	8r	48cc#LL	8r
.	.	48dd	.
.	.	48eeJJ	.
.	.	48ff#LL	.
.	.	48aa	.
.	.	48ggJJJ)	.
=411	=411	=411	=411
8AL	2D	4ff#	2.r
8dJ	.	.	.
8F#L 8A	.	(4f# 4ff#	.
8dJ	.	.	.
8AL	4D 4G	4e) 4ee	.
8c#J	.	.	.
=412	=412	=412	=412
2.r	8DL 8F# 8A	8dL 8dd	2.r
*	*clefG2	*	*
.	(8aJ	[8ddJ	.
.	8f#L	(16ddLL]	.
.	.	32cc#L	.
.	.	32ddJJ	.
.	8dJ	32eeLL	.
.	.	32ff#	.
.	.	32gg	.
.	.	32aaJJJ	.
.	8cL)	32bbLLL	.
.	.	32ccc	.
.	.	32ccc#	.
.	.	32dddJJJ)	.
*	*clefF4	*	*
.	8F#J 8c 8d	16.r	.
.	.	32ddd	.
=413	=413	=413	=413
2.r	8..GL 8..B 8..d	16dd 16ddd	2.r
.	.	16r	.
.	.	[8d [8dd	.
.	32GGJkk 32BB 32D	.	.
.	4.GG 4.BB 4.D	16d] 16dd]	.
.	.	16r	.
.	.	(24a#'LL	.
.	.	24b'	.
.	.	24cc#'JJ	.
.	.	24dd'LL	.
.	.	24ff#'	.
.	.	24gg'J	.
.	8r	24aa#'L	.
.	.	24bb'	.
.	.	24ccc#'JJ)	.
=414	=414	=414	=414
2.r	8..F#L 8..A 8..d	16dd 16ddd	2.r
.	.	16r	.
.	.	[8d [8dd	.
.	32FF#Jkk 32AA 32D	.	.
.	4.FF# 4.AA 4.D	16d] 16dd]	.
.	.	16r	.
.	.	(24g#'LL	.
.	.	24a'	.
.	.	24cc#'JJ	.
.	.	24dd'LL	.
.	.	24ee#'	.
.	.	24ff#'J)	.
.	8r	(32ggLL	.
.	.	32gg#	.
.	.	32aa	.
.	.	32ggJJJ	.
=415	=415	=415	=415
2.r	16r	16ff#')	8r
.	(16AAALL [16AA	16r	.
.	16DD 16AA_ 16D	(16.ff#LL	8.AA 8.C#
.	16EEJJ 16AA_ 16E	.	.
.	.	32eeJJk	.
.	16FF#LL 16AA_ 16F#	16dd)	.
.	16GG 16AA_ 16G	16ALL	[8.CC#
.	16FF# 16AA_ 16F#	16d	.
.	16EEJJ 16AA_ 16E	16c#JJ 16e	.
.	16DDLL 16AA_ 16D	8d 8f#	8CC#]
.	16CC# 16AA] 16C#	.	.
.	16BBB 16BB	(16.ff#LL	(8AA
.	16AAAJJ) 16AA	.	.
.	.	32ddJJk)	.
=416	=416	=416	=416
2.r	16r	8gg	8BB) 8E
.	(16AAALL [16AA	.	.
.	16EE 16AA_ 16E	(16.eLL 16.g	[8CC#
.	16FF#JJ 16AA_ 16F#	.	.
.	.	32dJJk) 32f#	.
.	16GGLL 16AA_ 16G	16c# 16e	16CC#]
.	16FF# 16AA_ 16F#	(16aLL	[8.C#
.	16EE 16AA_ 16E	16cc# 16ee	.
.	16DDJJ 16AA_ 16D	16ddJJ) 16ff#	.
.	16CC#LL 16AA_ 16C#	8ee 8gg	8C#]
.	16BBB 16AA] 16BB	.	.
.	16AAA 16AA	(16.ggLL	[8C# 8E
.	16GGGJJ) 16GG	.	.
.	.	32eeJJk	.
=417	=417	=417	=417
2.r	8FFF#' 8FF#'	32aaLLL)	8C#] 8F#
.	.	32aa	.
.	.	32ee#	.
.	.	32ff#JJJ	.
.	(8AL 8B 8d#	32r	8r
.	.	(32ff#LLL	.
.	.	32ccc	.
.	.	32bbJJJ)	.
.	8G 8B 8e	32r	4r
.	.	(32bbLLL	.
.	.	32dd#	.
.	.	32eeJJJ)	.
.	8G 8A 8c#	32r	.
.	.	(32eeLLL	.
.	.	32bb	.
.	.	32aaJJJ)	.
.	8F#J) 8A 8d	32r	4r
.	.	(32aaLLL	.
.	.	32eee	.
.	.	32dddJJ	.
.	8r	32cccLL	.
.	.	32bb	.
.	.	32aa	.
.	.	32ggJJJ	.
*clefG2	*	*	*
=418	=418	=418	=418
8r	8r	32ff#LLL	8r
.	.	32gg	.
.	.	32gg#	.
.	.	32aaJJ	.
(8f#	4A	32bbLL	8F#
.	.	32aa	.
.	.	32gg#	.
.	.	32aaJJJ)	.
8eL	.	32r	8EL
.	.	(32aaLLL	.
.	.	32gg#	.
.	.	32aaJJ	.
8dJ)	8A	32bbLL	8AJ
.	.	32aa	.
.	.	32gg#	.
.	.	32aaJJJ)	.
8c#;	8A;	8aa	8G;
8r	8AAA;	8r	8r
*	*	*	*clefG2
=419	=419	=419	=419
2.r	2.r	4r	16ALL
.	.	.	(16a'
.	.	.	16a'
.	.	.	16a'JJ)
.	.	8r	(16a'LL
.	.	.	16a'
.	.	16.ggLL	16a'
.	.	.	16a'JJ)
.	.	32ff#JJk	.
.	.	16.eeLL	(16g'LL 16a'
.	.	.	16g' 16a'
.	.	32ddJJk	.
.	.	16cc#	16g' 16a'
.	.	16r	16g'JJ) 16a'
=420	=420	=420	=420
2.r	8r	16dd	16f#LL 16a
.	.	16r	16f# 16a
.	4d	8r	16f# 16a
.	.	.	16f#JJ 16a
.	.	4r	16f#LL 16a
.	.	.	16f# 16a
.	16.ALL	.	16f# 16a
.	.	.	16f#JJ 16a
.	32GJJk	.	.
.	16.F#LL	4r	16f#LL 16a
.	.	.	16f# 16a
.	32EJJk	.	.
.	16D	.	16f# 16a
.	16r	.	16f#JJ 16a
=421	=421	=421	=421
2.r	16C#	8r	16gLL 16a
.	16r	.	16g 16a
.	8r	4bb	16g 16a
.	.	.	16gJJ 16a
.	4r	.	16gLL 16a
.	.	.	16g 16a
.	.	16.ggLL	16g 16a
.	.	.	16gJJ 16a
.	.	32ff#JJk	.
.	4r	16.eeLL	16gLL 16a
.	.	.	16g 16a
.	.	32ddJJk	.
.	.	16cc#	16g 16a
.	.	16r	16gJJ 16a
=422	=422	=422	=422
2.r	8r	16dd	16f#LL 16a
.	.	16r	16f# 16a
.	4d	8r	16f# 16a
.	.	.	16f#JJ 16a
.	.	4r	16f#LL 16a
.	.	.	16f# 16a
.	16.ALL	.	16f# 16a 16dd
.	.	.	16f#JJ 16a 16dd
.	32GJJk	.	.
.	16.F#LL	4r	16f#LL 16a 16dd
.	.	.	16f# 16a 16dd
.	32EJJk	.	.
.	16D	.	16f# 16a 16dd
.	16r	.	16f#JJ 16a 16dd
=423	=423	=423	=423
2.r	8BB	8r	16g#LL 16dd
.	.	.	16g# 16dd
.	8r	4bb	16g# 16dd
.	.	.	16g#JJ 16dd
.	4r	.	16g#LL 16dd 16ee
.	.	.	16g# 16dd 16ee
.	.	16.eeeLL	16g# 16dd 16ee
.	.	.	16g#JJ 16dd 16ee
.	.	32dddJJk	.
.	4r	16.cccLL	16aLL 16cc 16ee
.	.	.	16a 16cc 16ee
.	.	32bbJJk	.
.	.	16aa	16a 16cc 16ee
.	.	16r	16aJJ 16cc 16ee
=424	=424	=424	=424
2.r	2.r	8r	8f# 8cc 8dd
.	.	8ddd	8r
.	.	8r	4r
.	.	16.bbLL	.
.	.	32aaJJk	.
.	.	8gg'	8b' 8dd'
.	.	8r	8r
=425	=425	=425	=425
2.r	8GG 8BB 8E	8r	2.r
.	8r	8g	.
.	4r	8r	.
.	.	16.eLL	.
.	.	32dJJk	.
.	8AA' 8E' 8G'	8c#'	.
.	8r	16.r	.
.	.	32c#	.
=426	=426	=426	=426
8r	2DD	2G 2A 2c# 2e	2r
16r	.	.	.
(16a	.	.	.
16bLL	.	.	.
16a	.	.	.
16g	.	.	.
16f#JJ)	.	.	.
8r	8DD 8AA	8F# 8d	8r
8r	8r	8r	32r
.	.	.	(32dLLL
.	.	.	32f#
.	.	.	32dJJJ)
=427	=427	=427	=427
2.r	2.r	8r	(16a'LL
.	.	.	16a'
.	.	8.ggL	16a'
.	.	.	16a'JJ)
.	.	.	(16a'LL
.	.	(64aaLLL	16a'
.	.	64ff#	.
.	.	64gg	.
.	.	64bbJJJJ)	.
.	.	16ee	16a'
.	.	(64ff#LLLL	16a'JJ)
.	.	64dd#	.
.	.	64ee	.
.	.	64ff#JJJJ)	.
.	.	16cc#	(16g'LL 16a'
.	.	(64ddLLLL	16g' 16a'
.	.	64b	.
.	.	64cc#	.
.	.	64eeJJJJ)	.
.	.	16.aLL	16g'
.	.	.	16g'JJ) 16a'
.	.	32aJJk	.
=428	=428	=428	=428
2.r	8r	16dd	16f#LL 16a
.	.	16r	16f# 16a
.	8.dL	8r	16f# 16a
.	.	.	16f#JJ 16a
.	.	4r	16f#LL 16a
.	(64eLLL	.	16f# 16a
.	64c#	.	.
.	64d	.	.
.	64f#JJJJ)	.	.
.	16A	.	16f# 16a
.	(64BLLLL	.	16f#JJ 16a
.	64G#	.	.
.	64A	.	.
.	64dJJJJ)	.	.
.	16F#	4r	16f#LL 16a
.	(64GLLLL	.	16f# 16a
.	64E	.	.
.	64F#	.	.
.	64AJJJJ)	.	.
.	16.DLL	.	16f# 16a
.	.	.	16f#JJ 16a
.	32DJJk	.	.
=429	=429	=429	=429
2.r	8C#	8r	16gLL 16a
.	.	.	16g 16a
.	8r	8.bbL	16g 16a
.	.	.	16gJJ 16a
.	4r	.	16gLL 16a
.	.	(64aaLLL	16g 16a
.	.	64ff#	.
.	.	64gg	.
.	.	64bbJJJJ)	.
.	.	16ee	16g 16a
.	.	(64ff#LLLL	16gJJ 16a
.	.	64dd#	.
.	.	64ee	.
.	.	64ff#JJJJ)	.
.	4r	16cc#	16gLL 16a
.	.	(64ddLLLL	16g 16a
.	.	64b	.
.	.	64cc#	.
.	.	64eeJJJJ)	.
.	.	16.aLL	16g
.	.	.	16gJJ 16a
.	.	32aJJk	.
=430	=430	=430	=430
2.r	8r	16dd	16f#LL 16a
.	.	16r	16f# 16a
.	8.dL	8r	16f# 16a
.	.	.	16f#JJ 16a
.	.	4r	16f#LL 16a
.	80e	.	16f# 16a
.	80c#	.	.
.	80d	.	.
.	80f#	.	.
.	80G#	.	.
.	16AL	.	16f# 16a
.	80B	.	16f#JJ 16a
.	80G#	.	.
.	80A	.	.
.	80d	.	.
.	80E#	.	.
.	16F#	4r	16f#LL 16a 16dd
.	16r	.	16f# 16a 16dd
.	16.DDLL	.	16f# 16a 16dd
.	.	.	16f#JJ 16a 16dd
.	32CC#JJk	.	.
=431	=431	=431	=431
2.r	16BBB	8r	16g#LL 16dd
.	16r	.	16g# 16dd
.	8r	8.bbL	16g# 16dd
.	.	.	16g#JJ 16dd
.	4r	.	16g#LL 16dd 16ee
.	.	(64cccLLL	16g# 16dd 16ee
.	.	64aa#	.
.	.	64bb	.
.	.	64fffJJJJ)	.
.	.	16eee	16g# 16dd 16ee
.	.	32r	16g#JJ 16dd 16ee
.	.	32bb	.
.	4r	32dddLLL	16aLL 16cc 16ee
.	.	32ccc	.
.	.	32bb	16a 16cc 16ee
.	.	32aa#JJ	.
.	.	32gg#LL	16a 16cc 16ee
.	.	32aa#	.
.	.	32bb	16aJJ 16cc 16ee
.	.	32cccJJJ	.
=432	=432	=432	=432
2.r	2.r	8ddL 8ddd	8f# 8cc
.	.	(128ddLLLK	8r
.	.	64.dddJJJJ)	.
.	.	32r	.
.	.	16r	.
.	.	16.r	4r
.	.	(64cccLLLL	.
.	.	64bbJJJJ)	.
.	.	16ddd'	.
.	.	32r	.
.	.	(64aaLLLL	.
.	.	64ggJJJJ)	.
.	.	8bb'	8g' 8dd'
.	.	8r	8r
=433	=433	=433	=433
2.r	8GG 8BB 8E	8r	2.r
.	8r	(128BLLLLK	.
.	.	64.gJJJJ)	.
.	.	32r	.
.	.	16r	.
.	16r	16.r	.
.	16r	.	.
.	.	(64f#LLLL	.
.	.	64eJJJJ)	.
.	16r	16g'	.
.	16r	32r	.
.	.	(64dLLLL	.
.	.	64c#JJJJ)	.
.	8AA' 8G'	8e'	.
.	8r	16.r	.
.	.	(32c#	.
*clefF4	*	*	*
=434	=434	=434	=434
8r	2DD	4e)	2.r
(24ELL	.	.	.
24D	.	.	.
24C#JJ	.	.	.
24BBLL	.	4G 4A 4c# 4e	.
24AA	.	.	.
24GGJ	.	.	.
24FF#L	.	.	.
24AA	.	.	.
24GGJJ)	.	.	.
4FF#;	4DD;	4A; 4d;	.
=435||	=435||	=435||	=435||
*M2/4	*M2/4	*M2/4	*M2/4
[2D	8AL	(8ggL	2r
.	8dJ	8ff#'J)	.
.	8GL	(8ff#L	.
.	8dJ	8ee'J)	.
=436	=436	=436	=436
4D]	8F#L	(8eeL	2r
.	8dJ	8dd'J)	.
4r	8AL	(8ddL	.
.	8dJ	8cc#'J)	.
=437	=437	=437	=437
2r	8GL	(8cc#L	2r
.	8dJ	8b'J)	.
.	8EL	(8bL	.
.	8dJ	8dd'J)	.
=438	=438	=438	=438
2r	8F#L	(8ddL	2r
.	8dJ	8a'J)	.
.	8DL	(8aL	.
.	8AJ	8f#'J)	.
=439	=439	=439	=439
2r	8EL	(8f#L	2r
.	8AJ	8g'J)	.
.	8C#L	(8gL	.
.	8AJ	8ee'J)	.
=440	=440	=440	=440
2r	8DL	(8eeL	2r
.	8AJ	8f#'J)	.
.	8AAL	(8f#L	.
.	8AJ	8dd'J)	.
=441	=441	=441	=441
2r	8GGL	(8ddL	2r
.	8AJ	8e'J)	.
.	8AAL	(8eL	.
.	8AJ	8cc#'J)	.
=442	=442	=442	=442
2r	4D	4f# 4dd	2r
.	4DD	4r	.
=443:|!|:	=443:|!|:	=443:|!|:	=443:|!|:
2r	8F#L	(8aL	2r
.	8AJ	8dd'J)	.
.	8DL	(8ddL	.
.	8AJ	8ff#'J)	.
=444	=444	=444	=444
2r	8C#L	(8ff#L	2r
.	8AJ	8gg'J)	.
.	8GGL	(8ggL	.
.	8AJ	8ccc#'J)	.
=445	=445	=445	=445
2r	8FF#L	(8ccc#L	2r
.	8AJ	8ddd'J)	.
.	8DL	(8dddL	.
.	8AJ	8aa'J)	.
=446	=446	=446	=446
2r	8C#L	(8aaL	2r
.	8AJ	8gg'J)	.
.	8GL	(8ggL	.
.	8AJ	8ee'J)	.
=447	=447	=447	=447
2r	8F#L	(8eeL	2r
.	8AJ	8dd'J)	.
.	8DL	(8ddL	.
.	8AJ	8a'J)	.
=448	=448	=448	=448
2r	8C#L	(8aL	2r
.	8AJ	8g'J)	.
.	8AAL 8G	(8gL	.
.	8AJ	8e'J)	.
=449	=449	=449	=449
2r	8DL 8F#	(8eL	2r
.	8AJ	8d'J)	.
.	8AAL 8G	(8f#L	.
.	8AJ	8e'J)	.
=450	=450	=450	=450
2r	8D'L	4d'	2r
.	8DDJ	.	.
.	8DDL	4r	.
.	8DDJ	.	.
=451:|!	=451:|!	=451:|!	=451:|!
2r	8DDL 8GG	(8ddL	2r
.	8DDJ	8bb'J) 8ddd'	.
.	8DDL 8BB	(8bbL 8ddd	.
.	8DDJ	8gg'J) 8bb'	.
=452	=452	=452	=452
2r	8DDL 8D	(8ggL 8bb	2r
.	8DDJ	8ff#'J) 8aa'	.
.	8DDL	4r	.
.	8DDJ	.	.
=453	=453	=453	=453
2r	8DDL 8GG	(8dL	2r
.	8DDJ	8b'J) 8dd'	.
.	8DDL 8BB	(8bL 8dd	.
.	8DDJ	8g'J) 8b'	.
=454	=454	=454	=454
2r	8DDL 8D	(8gL 8b	2r
.	8DDJ	8f#'J) 8a'	.
.	8DDL	4r	.
.	8DDJ	.	.
=455	=455	=455	=455
2r	2CC# 2GG 2AA	16ALL	2r
.	.	16B	.
.	.	16c#	.
.	.	16BJJ	.
.	.	16ALL	.
.	.	16B	.
.	.	16c#	.
.	.	16AJJ	.
=456	=456	=456	=456
2r	4DD 4FF# 4AA	16dLL	2r
.	.	16e	.
.	.	16f#	.
.	.	16gJJ	.
.	4r	16aLL	.
.	.	16b	.
.	.	16cc#	.
.	.	16ddJJ	.
=457	=457	=457	=457
2r	8GG' 8E'	16eeLL	2r
.	.	16gg	.
.	8r	16ee	.
.	.	16bJJ	.
.	8AA' 8G'	16aLL	.
.	.	16ee	.
.	8r	16cc#	.
.	.	16aJJ	.
=458	=458	=458	=458
2r	8D'L 8F#'	4dd'	2r
.	8DJ	.	.
.	8DL	4r	.
.	8DJ	.	.
=459	=459	=459	=459
2r	8DL 8G	(8ddL	2r
.	8DJ	8bb'J) 8ddd'	.
.	8DL 8B	(8bbL 8ddd	.
.	8DJ	8gg'J) 8bb'	.
=460	=460	=460	=460
2r	8DL 8d	(8ggL 8bb	2r
.	8DJ	8ff#'J) 8aa'	.
.	8DL	4r	.
.	8DJ	.	.
=461	=461	=461	=461
2r	8DL 8G	(8dL	2r
.	8DJ	8b'J) 8dd'	.
.	8DL 8B	(8bL 8dd	.
.	8DJ	8g'J) 8b'	.
=462	=462	=462	=462
2r	8DL 8d	(8gL 8b	2r
.	8DJ	8f#'J) 8a'	.
.	8DL	4r	.
.	8DJ	.	.
=463	=463	=463	=463
2r	(2C# 2G	16ALL	2r
.	.	16B	.
.	.	16c#	.
.	.	16BJJ	.
.	.	16ALL	.
.	.	16B	.
.	.	16c#	.
.	.	16AJJ	.
=464	=464	=464	=464
2r	4D) 4F#	16dLL	2r
.	.	16e	.
.	.	16f#	.
.	.	16gJJ	.
.	4r	16aLL	.
.	.	16b	.
.	.	16cc#	.
.	.	16ddJJ	.
*	*clefG2	*	*
=465	=465	=465	=465
2r	(2A 2c# 2g	16eeLL	2r
.	.	16dd	.
.	.	16cc#	.
.	.	16bJJ	.
.	.	16aLL	.
.	.	16b	.
.	.	16cc#	.
.	.	16aJJ	.
=466	=466	=466	=466
2r	4d) 4f#	16ddLL	2r
.	.	16ee	.
.	.	16ff#	.
.	.	16ggJJ	.
.	4r	16aaLL	.
.	.	16bb	.
.	.	16ccc#	.
.	.	16dddJJ	.
*	*clefF4	*	*
=467	=467	=467	=467
2r	2C# 2G 2A	16eeeLL	2r
.	.	16ddd	.
.	.	16ccc#	.
.	.	16bbJJ	.
.	.	16aaLL	.
.	.	16bb	.
.	.	16ccc#	.
.	.	16aaJJ	.
=468	=468	=468	=468
2r	4D 4F#	16dddLL	2r
.	.	16ccc#	.
.	.	16bb	.
.	.	16aaJJ	.
.	4r	16ggLL	.
.	.	16ff#	.
.	.	16ee	.
.	.	16ddJJ	.
=469	=469	=469	=469
2r	8GG' 8E'	16bLL	2r
.	.	16gg	.
.	8r	16ee	.
.	.	16bJJ	.
.	8AA' 8A'	16aLL	.
.	.	16ee	.
.	8r	16cc#	.
.	.	16aJJ	.
=470	=470	=470	=470
2r	4DD 4D	4dd	2r
.	4r	4r	.
=471	=471	=471	=471
2r	2r	2r	2r
=472	=472	=472	=472
2r	2r	2r	2r
=473	=473	=473	=473
2r	2r	4ddd	2r
.	.	4r	.
=474	=474	=474	=474
2r	2r	2r	2r
=475	=475	=475	=475
2r	2r	2r	2r
*clefG2	*clefG2	*	*
=476	=476	=476	=476
8fL	[2B-	(4ddd	2r
8b-J	.	.	.
8e-L	.	4ccc)	.
8b-J	.	.	.
=477	=477	=477	=477
8dL	2B-]	4.bb-	2r
8b-J	.	.	.
8fL	.	.	.
8b-J	.	(8aa	.
=478	=478	=478	=478
8e-L	[2B-	4gg)	2r
8b-J	.	.	.
8e-L	.	8ggL	.
8b-J	.	8bb-J	.
=479	=479	=479	=479
8dL	2B-]	(2ff	2r
8b-J	.	.	.
8fL	.	.	.
8b-J	.	.	.
=480	=480	=480	=480
8c#L	4B-	(4ee')	2r
8gJ	.	.	.
8c#L	4B-	4ee')	.
8gJ	.	.	.
=481	=481	=481	=481
8c#L	2A	4ee	2r
8gJ	.	.	.
8c#L	.	[4aa	.
8gJ	.	.	.
=482	=482	=482	=482
8dL	4A	4aa]	2r
8f#J	.	.	.
8gL	4A	(8bbL	.
8eJ	.	8ccc#J)	.
*	*clefF4	*	*
=483	=483	=483	=483
2r	4d'	4ddd	2r
.	4D'	4r	.
*clefF4	*	*	*
=484	=484	=484	=484
8FL	[2BB-	(4dd 4ddd	2r
8B-J	.	.	.
8E-L	.	4cc 4ccc	.
8B-J	.	.	.
=485	=485	=485	=485
8DL	2BB-]	4.b- 4.bb-	2r
8B-J	.	.	.
8FL	.	.	.
8B-J	.	8a) 8aa	.
=486	=486	=486	=486
8E-L	[2BB-	4g 4gg	2r
8B-J	.	.	.
8E-L	.	8b-L 8gg	.
8B-J	.	8bb-J	.
=487	=487	=487	=487
8DL	2BB-]	(2f 2ff	2r
8B-J	.	.	.
8FL	.	.	.
8B-J	.	.	.
=488	=488	=488	=488
8C#L	4BB-	(4e') 4ee'	2r
8GJ	.	.	.
8C#L	4BB-	4e') 4ee'	.
8GJ	.	.	.
=489	=489	=489	=489
8C#L	2AA	4e 4ee	2r
8GJ	.	.	.
8C#L	.	[4a [4aa	.
8GJ	.	.	.
=490	=490	=490	=490
8DL	4AA	4a] 4aa]	2r
8F#J	.	.	.
8CL	4AA	8bL 8bb	.
8F#J	.	8ccJ 8ccc	.
=491	=491	=491	=491
8BBL 8D	[2GG	([4dd 4bb [4ddd	2r
8GJ	.	.	.
8CL	.	4dd] 4aa 4ddd]	.
8GJ	.	.	.
=492	=492	=492	=492
8BBL	2GG]	4.gg	2r
8GJ	.	.	.
8DL	.	.	.
8GJ	.	8ff#	.
=493	=493	=493	=493
8CL	[2GG	4ee)	2r
8GJ	.	.	.
8CL	.	(8eeL	.
8GJ	.	8ggJ)	.
=494	=494	=494	=494
8BBL	2GG]	2dd	2r
8GJ	.	.	.
8DL	.	.	.
8GJ	.	.	.
=495	=495	=495	=495
8CL	4GG	4ee-	2r
8GJ	.	.	.
8BB-L	4E-	4d- 4e- 4dd-	.
8GJ	.	.	.
=496	=496	=496	=496
8CL	[2AA- 2E-	4c 4e- 4cc	2r
8A-J	.	.	.
8E-L	.	4b-	.
8GJ	.	.	.
=497	=497	=497	=497
8CL	2AA-_	4.e- 4.a-	2r
8A-J	.	.	.
8E-L	.	.	.
8A-J	.	8g	.
=498	=498	=498	=498
8D-L	2AA-_	4f	2r
8A-J	.	.	.
8D-L	.	(8fL	.
8A-J	.	8a-'J)	.
=499	=499	=499	=499
8CL	2AA-_	4e-	2r
8A-J	.	.	.
8E-L	.	4r	.
8A-J	.	.	.
=500	=500	=500	=500
8D-L	2AA-_	4ff'	2r
8A-J	.	.	.
8D-L	.	(8ffL	.
8A-J	.	8aa-'J)	.
=501	=501	=501	=501
8CL	2AA-]	4ee-	2r
8A-J	.	.	.
8E-L	.	4r	.
8A-J	.	.	.
=502	=502	=502	=502
8D-L	[2AA-	4f'	2r
8A-J	.	.	.
8D-L	.	(8fL	.
8A-J	.	8a-'J)	.
=503	=503	=503	=503
8CL	2AA-_	4e-	2r
8A-J	.	.	.
8E-L	.	4r	.
8A-J	.	.	.
=504	=504	=504	=504
8D-L	2AA-]	4ff-'	2r
8A-J	.	.	.
8D-L	.	(8ff-L	.
8A-J	.	8aa-'J)	.
=505	=505	=505	=505
8CL	[2AA-	4ee-	2r
8A-J	.	.	.
8E-L	.	4r	.
8A-J	.	.	.
=506	=506	=506	=506
8CL	2AA-_	2r	2r
8A-J	.	.	.
8E-L	.	.	.
8A-J	.	.	.
=507	=507	=507	=507
8C#L	2GG#]	2r	2r
8G#J	.	.	.
8EL	.	.	.
8G#J	.	.	.
=508	=508	=508	=508
8C#L	[2AA	2r	2r
8AJ	.	.	.
8EL	.	.	.
8AJ	.	.	.
=509	=509	=509	=509
8DL	2AA]	2r	2r
8AJ	.	.	.
8F#L	.	.	.
8AJ	.	.	.
=510	=510	=510	=510
8DL	[2AA	4ff#'	2r
8AJ	.	.	.
8DL	.	(8ff#L	.
8AJ	.	8aa'J)	.
=511	=511	=511	=511
8C#L	2AA_	4ee	2r
8AJ	.	.	.
8EL	.	4r	.
8AJ	.	.	.
=512	=512	=512	=512
8DL	2AA]	4f#'	2r
8AJ	.	.	.
8DL	.	(8f#L	.
8AJ	.	8a'J)	.
=513	=513	=513	=513
8C#L	2AA	4e	2r
8AJ	.	.	.
8EL	.	4r	.
8AJ	.	.	.
=514	=514	=514	=514
2r	4D 4A	4ff#'	2r
.	4r	(8ff#L	.
.	.	8aa'J)	.
=515	=515	=515	=515
2r	4C# 4A	4ee'	2r
.	4r	(8eeL	.
.	.	8aa'J)	.
=516	=516	=516	=516
2r	4D 4A	4ff#'	2r
.	4r	(8ff#L	.
.	.	8aa'J)	.
=517	=517	=517	=517
2r	4BB 4D 4G	4dd'	2r
.	4r	(8ddL	.
.	.	8gg'J)	.
*	*clefG2	*	*
=518	=518	=518	=518
2r	4c# 4g	4ee'	2r
.	4r	(8eeL	.
.	.	8gg'J)	.
=519	=519	=519	=519
2r	4B 4g	4dd'	2r
.	4r	(8ddL	.
.	.	8gg'J)	.
=520	=520	=520	=520
2r	4c# 4g	4ee'	2r
.	4r	(8eeL	.
.	.	8gg'J)	.
=521	=521	=521	=521
2r	4A# 4c# 4f#	4cc#'	2r
.	4r	(8cc#L	.
.	.	8ff#'J)	.
*	*clefF4	*	*
=522	=522	=522	=522
2r	4BB 4F#	4dd'	2r
.	4r	(8ddL	.
.	.	8ff#'J)	.
=523	=523	=523	=523
2r	4GG 4E	4b'	2r
.	4r	(8bL	.
.	.	8ee'J)	.
=524	=524	=524	=524
2r	4A 4e 4g	4cc#'	2r
.	4r	(8cc#L	.
.	.	8a'J)	.
=525	=525	=525	=525
2r	4d 4f#	4dd'	2r
.	4r	(8ff#L	.
.	.	8ee'J)	.
=526	=526	=526	=526
2r	4BB 4F#	4dd'	2r
.	4r	(8ddL	.
.	.	8ff#'J)	.
=527	=527	=527	=527
2r	4GG 4E	4b'	2r
.	4r	(8bL	.
.	.	8ee'J)	.
=528	=528	=528	=528
2r	4A 4e 4g	4cc#'	2r
.	4r	(8cc#L	.
.	.	8a'J)	.
=529	=529	=529	=529
2r	2r	2r	2r
=530	=530	=530	=530
2r	2r	4r	2r
.	.	32r	.
.	.	(32aLLL	.
.	.	32b	.
.	.	32cc#JJ	.
.	.	32ddLL	.
.	.	32ee	.
.	.	32ff#	.
.	.	32ggJJJ	.
=531	=531	=531	=531
2r	8d 8f#	16aaLL)	2r
.	.	16a	.
.	8r	16b	.
.	.	16aJJ	.
.	8A 8e	16aaLL	.
.	.	16a	.
.	8r	16b	.
.	.	16aJJ	.
=532	=532	=532	=532
2r	[4F# [4d	16aaLL	2r
.	.	16a	.
.	.	16b	.
.	.	16aJJ	.
.	8.F#L] 8.d]	16aaLL	.
.	.	16a	.
.	.	16b	.
.	16AJk 16c#	16aJJ	.
=533	=533	=533	=533
2r	4G 4B	16dddLL	2r
.	.	16dd	.
.	.	16ee	.
.	.	16ddJJ	.
.	(8GL 8B	16dddLL	.
.	.	16dd	.
.	8dJ)	16ee	.
.	.	16ddJJ	.
=534	=534	=534	=534
2r	4F# 4A	16dddLL	2r
.	.	16dd	.
.	.	16ee	.
.	.	16ddJJ	.
.	8r	16dddLL	.
.	.	16dd	.
.	16r	16ee	.
.	16E 16G	16ddJJ	.
=535	=535	=535	=535
2r	8D 8F#	16aaLL	2r
.	.	16dd	.
.	8r	16ee	.
.	.	16ddJJ	.
.	(4D 4F#	16aaLL	.
.	.	16dd	.
.	.	16ee	.
.	.	16ddJJ	.
=536	=536	=536	=536
2r	8GG) 8E	16ggLL	2r
.	.	16b	.
.	8r	16cc#	.
.	.	16bJJ	.
.	(4GG 4E	16ggLL	.
.	.	16b	.
.	.	16cc#	.
.	.	16bJJ	.
=537	=537	=537	=537
2r	8AA) 8C#	16eeLL	2r
.	.	16a	.
.	8r	16b	.
.	.	16aJJ	.
.	(4AA 4C#	16eeLL	.
.	.	16a	.
.	.	16b	.
.	.	16aJJ	.
=538	=538	=538	=538
2r	8DD) 8D	16ff#LL	2r
.	.	16a	.
.	8r	16b	.
.	.	16aJJ	.
.	4r	16ff#LL	.
.	.	16a	.
.	.	16b	.
.	.	16aJJ	.
=539	=539	=539	=539
2r	8F# 8f#	16aaLL	2r
.	.	16dd	.
.	8r	16ee	.
.	.	16ddJJ	.
.	(4F# 4f#	16aaLL	.
.	.	16dd	.
.	.	16ee	.
.	.	16ddJJ	.
=540	=540	=540	=540
2r	8G) 8g	16bbLL	2r
.	.	16dd	.
.	8r	16ee	.
.	.	16ddJJ	.
.	(4G 4g	16bbLL	.
.	.	16dd	.
.	.	16ee	.
.	.	16ddJJ	.
=541	=541	=541	=541
2r	8A) 8e	16ccc#LL	2r
.	.	16gg	.
.	8r	16aa	.
.	.	16ggJJ	.
.	(4A 4e	16ccc#LL	.
.	.	16gg	.
.	.	16aa	.
.	.	16ggJJ	.
=542	=542	=542	=542
2r	8D) 8d	16dddLL	2r
.	.	16ff#	.
.	8r	16gg	.
.	.	16ff#JJ	.
.	4r	16dddLL	.
.	.	16dd	.
.	.	16ee	.
.	.	16ddJJ	.
=543	=543	=543	=543
2r	8A 8e	16aaLL	2r
.	.	16cc#	.
.	8r	16dd	.
.	.	16cc#JJ	.
.	(4A 4e	16aaLL	.
.	.	16a	.
.	.	16b	.
.	.	16aJJ	.
=544	=544	=544	=544
2r	8d) 8f#	16aaLL	2r
.	.	16a	.
.	8r	16b	.
.	.	16aJJ	.
.	4r	16bLL	.
.	.	16a	.
.	.	16b	.
.	.	16aJJ	.
=545	=545	=545	=545
2r	8AA 8E	16aaLL	2r
.	.	16a	.
.	8r	16b	.
.	.	16aJJ	.
.	(4AA 4E	16aaLL	.
.	.	16a	.
.	.	16b	.
.	.	16aJJ	.
=546	=546	=546	=546
2r	8DD) 8D	8aa'L	2r
.	8r	(8aJ	.
.	4r	8bL	.
.	.	8aJ)	.
=547	=547	=547	=547
2r	8d' 8f#'	8aa'L	2r
.	8r	(8aJ	.
.	8A' 8e'	8bL	.
.	8r	8aJ)	.
=548	=548	=548	=548
2r	8F#' 8d'	8aa'L	2r
.	8r	(8aJ	.
.	4r	8bL	.
.	.	8aJ)	.
=549	=549	=549	=549
2r	8D' 8F#'	8aa'L	2r
.	8r	(8aJ	.
.	8AA' 8E'	8bL	.
.	8r	8aJ)	.
=550	=550	=550	=550
2r	8FF#' 8D'	4aa'	2r
.	8r	.	.
.	4r	4a'	.
=551	=551	=551	=551
2r	2r	4b'	2r
.	.	4a'	.
=552	=552	=552	=552
2r	4d 4f#	2r	2r
.	4r	.	.
=553	=553	=553	=553
2r	4A 4e	2r	2r
.	4r	.	.
=554	=554	=554	=554
2r	4F# 4d	2aa	2r
.	4r	.	.
=555	=555	=555	=555
2r	2r	2a	2r
=556	=556	=556	=556
2r	2r	2b	2r
=557	=557	=557	=557
2r	2r	2a	2r
=558	=558	=558	=558
2r	4D' 4F#'	2r	2r
.	4r	.	.
=559	=559	=559	=559
2r	2r	2r	2r
=560	=560	=560	=560
2r	4AA' 4E'	2r	2r
.	4r	.	.
=561	=561	=561	=561
2r	2r	2r	2r
=562	=562	=562	=562
2r	4FF#' 4D'	[2aa	2r
.	4r	.	.
=563	=563	=563	=563
2r	2r	2aa]	2r
=564	=564	=564	=564
2r	2r	[2a	2r
=565	=565	=565	=565
2r	2r	2a]	2r
=566	=566	=566	=566
2r	2r	[2b	2r
=567	=567	=567	=567
2r	2r	2b]	2r
=568	=568	=568	=568
2r	2r	[2a	2r
=569	=569	=569	=569
2r	2r	2a]	2r
=570	=570	=570	=570
2r	[2DD [2AA	2r	2r
=571	=571	=571	=571
2r	2DD_ 2AA_	2r	2r
=572	=572	=572	=572
2r	2DD_ 2AA_	2r	2r
=573	=573	=573	=573
2r	2DD] 2AA]	2r	2r
=574	=574	=574	=574
2r	[2DD [2AA	[2ff# [2ddd	2r
=575	=575	=575	=575
2r	2DD_ 2AA_	2ff#_ 2ddd_	2r
=576	=576	=576	=576
2r	2DD_ 2AA_	2ff#_ 2ddd_	2r
=577	=577	=577	=577
2r	2DD] 2AA]	2ff#] 2ddd]	2r
=578	=578	=578	=578
2r	2DD; 2AA;	2ff#; 2ddd;	2r
==	==	==	==
*-	*-	*-	*-
